skills/darktable-colorist/assets/luts/cc.cube
#title:FLog2C_to_CLASSIC-CHROME
#model:GFX ETERNA 55
#FUJIFILM Corporation
#Gamma:F-Log2C to CLASSIC CHROME
#Gamut:F-GamutC to ITU-R BT.709
#Version:1.00
LUT_3D_SIZE 65
0.000000 0.000000 0.000000
0.000000 0.000000 0.000000
0.000000 0.000000 0.000000
0.000000 0.000000 0.000000
0.004691 0.000895 0.000222
0.013097 0.001707 0.000000
0.028934 0.002019 0.000000
0.050830 0.001856 0.002757
0.076441 0.002282 0.001918
0.105375 0.003965 0.003032
0.149169 0.004310 0.006320
0.196284 0.006583 0.008102
0.254543 0.007265 0.014543
0.325901 0.009991 0.018946
0.396866 0.014390 0.024325
0.483666 0.017758 0.036317
0.573004 0.025728 0.052214
0.654127 0.037211 0.071574
0.733489 0.050729 0.093641
0.801504 0.070156 0.123605
0.860519 0.095434 0.164175
0.914059 0.122495 0.209937
0.961719 0.163333 0.268704
0.965587 0.203490 0.325910
0.962417 0.244490 0.371536
0.961994 0.277468 0.391288
0.959026 0.316166 0.413973
0.958403 0.355480 0.435903
0.958776 0.374451 0.448598
0.958776 0.374451 0.448598
0.958776 0.374451 0.448598
0.958776 0.374451 0.448598
0.958776 0.374451 0.448598
0.958776 0.374451 0.448598
0.958776 0.374451 0.448598
0.958776 0.374451 0.448598
0.958776 0.374451 0.448598
0.958776 0.374451 0.448598
0.958776 0.374451 0.448598
0.958776 0.374451 0.448598
0.958776 0.374451 0.448598
0.958776 0.374451 0.448598
0.958776 0.374451 0.448598
0.958776 0.374451 0.448598
0.958776 0.374451 0.448598
0.958776 0.374451 0.448598
0.958776 0.374451 0.448598
0.958776 0.374451 0.448598
0.958776 0.374451 0.448598
0.958776 0.374451 0.448598
0.958776 0.374451 0.448598
0.958776 0.374451 0.448598
0.958776 0.374451 0.448598
0.958776 0.374451 0.448598
0.958776 0.374451 0.448598
0.958776 0.374451 0.448598
0.958776 0.374451 0.448598
0.958776 0.374451 0.448598
0.958776 0.374451 0.448598
0.958776 0.374451 0.448598
0.958776 0.374451 0.448598
0.958776 0.374451 0.448598
0.958776 0.374451 0.448598
0.958776 0.374451 0.448598
0.958776 0.374451 0.448598
0.000000 0.000000 0.000000
0.000000 0.000000 0.000000
0.000000 0.000000 0.000000
0.000000 0.000000 0.000000
0.002347 0.000616 0.000000
0.009776 0.000115 0.000000
0.020528 0.001206 0.000000
0.038709 0.001460 0.002313
0.062951 0.002250 0.003203
0.092278 0.002257 0.003341
0.128641 0.003440 0.004676
0.177126 0.004680 0.008187
0.226586 0.007232 0.010946
0.295991 0.007668 0.015125
0.366956 0.012068 0.020504
0.447695 0.015573 0.030542
0.534687 0.023265 0.045465
0.617966 0.031038 0.061141
0.701434 0.042464 0.083208
0.773557 0.060135 0.111441
0.835704 0.083353 0.145844
0.891588 0.111701 0.187391
0.940818 0.145844 0.242249
0.966581 0.186173 0.301101
0.962627 0.228169 0.360794
0.963182 0.262124 0.381523
0.959630 0.298171 0.402255
0.959983 0.338461 0.425161
0.958776 0.374451 0.448598
0.958776 0.374451 0.448598
0.958776 0.374451 0.448598
0.958776 0.374451 0.448598
0.958776 0.374451 0.448598
0.958776 0.374451 0.448598
0.958776 0.374451 0.448598
0.958776 0.374451 0.448598
0.958776 0.374451 0.448598
0.958776 0.374451 0.448598
0.958776 0.374451 0.448598
0.958776 0.374451 0.448598
0.958776 0.374451 0.448598
0.958776 0.374451 0.448598
0.958776 0.374451 0.448598
0.958776 0.374451 0.448598
0.958776 0.374451 0.448598
0.958776 0.374451 0.448598
0.958776 0.374451 0.448598
0.958776 0.374451 0.448598
0.958776 0.374451 0.448598
0.958776 0.374451 0.448598
0.958776 0.374451 0.448598
0.958776 0.374451 0.448598
0.958776 0.374451 0.448598
0.958776 0.374451 0.448598
0.958776 0.374451 0.448598
0.958776 0.374451 0.448598
0.958776 0.374451 0.448598
0.958776 0.374451 0.448598
0.958776 0.374451 0.448598
0.958776 0.374451 0.448598
0.958776 0.374451 0.448598
0.958776 0.374451 0.448598
0.958776 0.374451 0.448598
0.958776 0.374451 0.448598
0.958776 0.374451 0.448598
0.000000 0.000000 0.000000
0.000000 0.000000 0.000000
0.000000 0.000000 0.000000
0.000000 0.000000 0.000000
0.000000 0.000000 0.000000
0.004691 0.000895 0.000222
0.015443 0.001985 0.000667
0.028934 0.002019 0.000000
0.052200 0.001158 0.002757
0.078788 0.002561 0.002895
0.112806 0.003464 0.003254
0.156598 0.003810 0.006543
0.207428 0.006000 0.007570
0.262949 0.008078 0.014012
0.337045 0.009072 0.020144
0.411333 0.014728 0.027477
0.498133 0.018095 0.039468
0.587471 0.026065 0.055368
0.667617 0.036571 0.073749
0.744824 0.053798 0.099500
0.810101 0.074620 0.129464
0.868140 0.098250 0.172520
0.923240 0.129274 0.219481
0.966601 0.167543 0.277047
0.964993 0.210490 0.334253
0.962608 0.248814 0.374466
0.962186 0.281793 0.394218
0.959216 0.320828 0.415172
0.959178 0.362455 0.440786
0.958776 0.374451 0.448598
0.958776 0.374451 0.448598
0.958776 0.374451 0.448598
0.958776 0.374451 0.448598
0.958776 0.374451 0.448598
0.958776 0.374451 0.448598
0.958776 0.374451 0.448598
0.958776 0.374451 0.448598
0.958776 0.374451 0.448598
0.958776 0.374451 0.448598
0.958776 0.374451 0.448598
0.958776 0.374451 0.448598
0.958776 0.374451 0.448598
0.958776 0.374451 0.448598
0.958776 0.374451 0.448598
0.958776 0.374451 0.448598
0.958776 0.374451 0.448598
0.958776 0.374451 0.448598
0.958776 0.374451 0.448598
0.958776 0.374451 0.448598
0.958776 0.374451 0.448598
0.958776 0.374451 0.448598
0.958776 0.374451 0.448598
0.958776 0.374451 0.448598
0.958776 0.374451 0.448598
0.958776 0.374451 0.448598
0.958776 0.374451 0.448598
0.958776 0.374451 0.448598
0.958776 0.374451 0.448598
0.958776 0.374451 0.448598
0.958776 0.374451 0.448598
0.958776 0.374451 0.448598
0.958776 0.374451 0.448598
0.958776 0.374451 0.448598
0.958776 0.374451 0.448598
0.958776 0.374451 0.448598
0.000000 0.000000 0.000000
0.000000 0.000000 0.000000
0.000000 0.000000 0.000000
0.000000 0.000000 0.000000
0.000000 0.000000 0.000000
0.002347 0.000616 0.000000
0.012120 0.000394 0.000445
0.024243 0.001124 0.000000
0.042424 0.001379 0.001559
0.065297 0.002864 0.002449
0.100684 0.002734 0.004539
0.133332 0.003998 0.006629
0.183186 0.004877 0.008411
0.236362 0.007011 0.012144
0.306349 0.010097 0.018278
0.379076 0.011790 0.024410
0.458448 0.015993 0.034449
0.546809 0.023322 0.047640
0.633016 0.034362 0.064515
0.712769 0.046206 0.085606
0.782154 0.064935 0.115570
0.845669 0.086785 0.153433
0.900578 0.113819 0.195734
0.950000 0.152287 0.253524
0.965405 0.189851 0.310952
0.964771 0.234110 0.367405
0.961611 0.268820 0.385429
0.960798 0.303472 0.406161
0.958413 0.345157 0.429067
0.958776 0.374451 0.448598
0.958776 0.374451 0.448598
0.958776 0.374451 0.448598
0.958776 0.374451 0.448598
0.958776 0.374451 0.448598
0.958776 0.374451 0.448598
0.958776 0.374451 0.448598
0.958776 0.374451 0.448598
0.958776 0.374451 0.448598
0.958776 0.374451 0.448598
0.958776 0.374451 0.448598
0.958776 0.374451 0.448598
0.958776 0.374451 0.448598
0.958776 0.374451 0.448598
0.958776 0.374451 0.448598
0.958776 0.374451 0.448598
0.958776 0.374451 0.448598
0.958776 0.374451 0.448598
0.958776 0.374451 0.448598
0.958776 0.374451 0.448598
0.958776 0.374451 0.448598
0.958776 0.374451 0.448598
0.958776 0.374451 0.448598
0.958776 0.374451 0.448598
0.958776 0.374451 0.448598
0.958776 0.374451 0.448598
0.958776 0.374451 0.448598
0.958776 0.374451 0.448598
0.958776 0.374451 0.448598
0.958776 0.374451 0.448598
0.958776 0.374451 0.448598
0.958776 0.374451 0.448598
0.958776 0.374451 0.448598
0.958776 0.374451 0.448598
0.958776 0.374451 0.448598
0.958776 0.374451 0.448598
0.000000 0.000000 0.000000
0.000000 0.000000 0.000000
0.000000 0.000000 0.000000
0.000000 0.000000 0.000000
0.000000 0.000000 0.000000
0.000000 0.000000 0.000000
0.006061 0.000197 0.000222
0.018181 0.000927 0.000000
0.032648 0.001600 0.000360
0.055522 0.002750 0.002981
0.086217 0.002061 0.003117
0.118865 0.003325 0.005207
0.161289 0.004704 0.006765
0.213096 0.007536 0.010500
0.278786 0.008054 0.015434
0.349166 0.009467 0.020590
0.423453 0.015122 0.027922
0.508493 0.020859 0.040890
0.595485 0.028551 0.055813
0.680323 0.039616 0.076148
0.756160 0.057540 0.101898
0.820462 0.076713 0.134347
0.878107 0.102017 0.178379
0.928707 0.136135 0.229777
0.967376 0.173847 0.285390
0.965768 0.216121 0.346059
0.961823 0.251826 0.378148
0.960615 0.288825 0.396395
0.960384 0.326128 0.419078
0.958000 0.367476 0.443715
0.958776 0.374451 0.448598
0.958776 0.374451 0.448598
0.958776 0.374451 0.448598
0.958776 0.374451 0.448598
0.958776 0.374451 0.448598
0.958776 0.374451 0.448598
0.958776 0.374451 0.448598
0.958776 0.374451 0.448598
0.958776 0.374451 0.448598
0.958776 0.374451 0.448598
0.958776 0.374451 0.448598
0.958776 0.374451 0.448598
0.958776 0.374451 0.448598
0.958776 0.374451 0.448598
0.958776 0.374451 0.448598
0.958776 0.374451 0.448598
0.958776 0.374451 0.448598
0.958776 0.374451 0.448598
0.958776 0.374451 0.448598
0.958776 0.374451 0.448598
0.958776 0.374451 0.448598
0.958776 0.374451 0.448598
0.958776 0.374451 0.448598
0.958776 0.374451 0.448598
0.958776 0.374451 0.448598
0.958776 0.374451 0.448598
0.958776 0.374451 0.448598
0.958776 0.374451 0.448598
0.958776 0.374451 0.448598
0.958776 0.374451 0.448598
0.958776 0.374451 0.448598
0.958776 0.374451 0.448598
0.958776 0.374451 0.448598
0.958776 0.374451 0.448598
0.958776 0.374451 0.448598
0.000977 0.000977 0.000977
0.000977 0.000977 0.000977
0.000000 0.000000 0.000000
0.000000 0.000000 0.000000
0.000000 0.000000 0.000000
0.000000 0.000000 0.000000
0.002347 0.000616 0.000000
0.013097 0.001707 0.000000
0.026587 0.001403 0.000136
0.046138 0.001297 0.000803
0.072727 0.002365 0.002672
0.102054 0.002373 0.002808
0.146822 0.003695 0.007074
0.190615 0.004377 0.008633
0.246138 0.006790 0.013345
0.319840 0.009795 0.018722
0.390805 0.014194 0.024101
0.471545 0.017363 0.035870
0.561276 0.024332 0.047331
0.645136 0.034420 0.066691
0.723713 0.051286 0.090711
0.793490 0.068006 0.121430
0.855245 0.092561 0.158539
0.908782 0.119621 0.204301
0.958597 0.156079 0.262844
0.964418 0.198861 0.318543
0.965356 0.236761 0.369359
0.962779 0.274121 0.389335
0.960203 0.311817 0.407583
0.959188 0.352132 0.433950
0.958776 0.374451 0.448598
0.958776 0.374451 0.448598
0.958776 0.374451 0.448598
0.958776 0.374451 0.448598
0.958776 0.374451 0.448598
0.958776 0.374451 0.448598
0.958776 0.374451 0.448598
0.958776 0.374451 0.448598
0.958776 0.374451 0.448598
0.958776 0.374451 0.448598
0.958776 0.374451 0.448598
0.958776 0.374451 0.448598
0.958776 0.374451 0.448598
0.958776 0.374451 0.448598
0.958776 0.374451 0.448598
0.958776 0.374451 0.448598
0.958776 0.374451 0.448598
0.958776 0.374451 0.448598
0.958776 0.374451 0.448598
0.958776 0.374451 0.448598
0.958776 0.374451 0.448598
0.958776 0.374451 0.448598
0.958776 0.374451 0.448598
0.958776 0.374451 0.448598
0.958776 0.374451 0.448598
0.958776 0.374451 0.448598
0.958776 0.374451 0.448598
0.958776 0.374451 0.448598
0.958776 0.374451 0.448598
0.958776 0.374451 0.448598
0.958776 0.374451 0.448598
0.958776 0.374451 0.448598
0.958776 0.374451 0.448598
0.958776 0.374451 0.448598
0.958776 0.374451 0.448598
0.000775 0.007984 0.000000
0.000192 0.004997 0.000000
0.000000 0.003684 0.000222
0.000583 0.002987 0.000222
0.000977 0.000977 0.000977
0.000000 0.000000 0.000000
0.002347 0.000616 0.000000
0.009776 0.000115 0.000000
0.020528 0.001206 0.000000
0.036363 0.001518 0.000000
0.059236 0.002668 0.002226
0.088563 0.002339 0.004093
0.122580 0.002907 0.006184
0.168718 0.004204 0.006989
0.222872 0.007651 0.009970
0.288560 0.008168 0.014902
0.358550 0.011255 0.021035
0.436551 0.016493 0.029344
0.524328 0.020499 0.044043
0.608975 0.027911 0.057988
0.691658 0.042686 0.082007
0.767496 0.060610 0.107758
0.829059 0.080841 0.141937
0.884943 0.108853 0.185215
0.936912 0.141938 0.238343
0.965415 0.181544 0.293734
0.962435 0.224852 0.352672
0.962990 0.257128 0.382054
0.960021 0.296834 0.399547
0.960184 0.332126 0.422984
0.959561 0.370768 0.448375
0.958776 0.374451 0.448598
0.958776 0.374451 0.448598
0.958776 0.374451 0.448598
0.958776 0.374451 0.448598
0.958776 0.374451 0.448598
0.958776 0.374451 0.448598
0.958776 0.374451 0.448598
0.958776 0.374451 0.448598
0.958776 0.374451 0.448598
0.958776 0.374451 0.448598
0.958776 0.374451 0.448598
0.958776 0.374451 0.448598
0.958776 0.374451 0.448598
0.958776 0.374451 0.448598
0.958776 0.374451 0.448598
0.958776 0.374451 0.448598
0.958776 0.374451 0.448598
0.958776 0.374451 0.448598
0.958776 0.374451 0.448598
0.958776 0.374451 0.448598
0.958776 0.374451 0.448598
0.958776 0.374451 0.448598
0.958776 0.374451 0.448598
0.958776 0.374451 0.448598
0.958776 0.374451 0.448598
0.958776 0.374451 0.448598
0.958776 0.374451 0.448598
0.958776 0.374451 0.448598
0.958776 0.374451 0.448598
0.958776 0.374451 0.448598
0.958776 0.374451 0.448598
0.958776 0.374451 0.448598
0.958776 0.374451 0.448598
0.958776 0.374451 0.448598
0.000000 0.010690 0.000000
0.000000 0.008681 0.000000
0.000775 0.007984 0.000000
0.000775 0.007984 0.000000
0.000192 0.004997 0.000000
0.000000 0.003684 0.000222
0.000583 0.002987 0.000222
0.004691 0.000895 0.000222
0.013097 0.001707 0.000000
0.028934 0.002019 0.000000
0.050830 0.001856 0.002757
0.076441 0.002282 0.001918
0.109089 0.003546 0.004008
0.149169 0.004310 0.006320
0.199998 0.006165 0.009078
0.256888 0.007882 0.013788
0.328246 0.010270 0.019922
0.405272 0.014867 0.025524
0.489727 0.017618 0.038270
0.575349 0.026007 0.053190
0.657842 0.036793 0.072551
0.736811 0.052321 0.093863
0.803850 0.070434 0.124581
0.861496 0.095739 0.168614
0.916988 0.125424 0.212866
0.964648 0.166262 0.271633
0.963825 0.205189 0.330347
0.962417 0.244154 0.373265
0.961994 0.277468 0.391288
0.958633 0.318177 0.413219
0.958986 0.358131 0.437856
0.958776 0.374451 0.448598
0.958776 0.374451 0.448598
0.958776 0.374451 0.448598
0.958776 0.374451 0.448598
0.958776 0.374451 0.448598
0.958776 0.374451 0.448598
0.958776 0.374451 0.448598
0.958776 0.374451 0.448598
0.958776 0.374451 0.448598
0.958776 0.374451 0.448598
0.958776 0.374451 0.448598
0.958776 0.374451 0.448598
0.958776 0.374451 0.448598
0.958776 0.374451 0.448598
0.958776 0.374451 0.448598
0.958776 0.374451 0.448598
0.958776 0.374451 0.448598
0.958776 0.374451 0.448598
0.958776 0.374451 0.448598
0.958776 0.374451 0.448598
0.958776 0.374451 0.448598
0.958776 0.374451 0.448598
0.958776 0.374451 0.448598
0.958776 0.374451 0.448598
0.958776 0.374451 0.448598
0.958776 0.374451 0.448598
0.958776 0.374451 0.448598
0.958776 0.374451 0.448598
0.958776 0.374451 0.448598
0.958776 0.374451 0.448598
0.958776 0.374451 0.448598
0.958776 0.374451 0.448598
0.958776 0.374451 0.448598
0.958776 0.374451 0.448598
0.000765 0.019651 0.000000
0.000000 0.015351 0.000136
0.000000 0.013678 0.000000
0.000967 0.012644 0.000892
0.000000 0.008681 0.000000
0.000775 0.007984 0.000000
0.000775 0.007984 0.000000
0.001560 0.004300 0.000000
0.008991 0.003799 0.000000
0.022481 0.003495 0.000136
0.043400 0.002691 0.000803
0.065297 0.002864 0.002449
0.092278 0.002257 0.003341
0.128641 0.003440 0.004676
0.177126 0.004680 0.008187
0.234015 0.006732 0.011167
0.298336 0.007947 0.016101
0.373017 0.011928 0.022457
0.451018 0.016494 0.034227
0.538402 0.022847 0.046442
0.620311 0.031318 0.062118
0.706125 0.043023 0.085161
0.777857 0.063040 0.110910
0.838048 0.083296 0.148550
0.893934 0.110971 0.193559
0.943748 0.148437 0.246910
0.966581 0.185501 0.304562
0.963795 0.233806 0.362968
0.963766 0.265110 0.381747
0.960213 0.300822 0.404208
0.959589 0.340135 0.426137
0.958776 0.374451 0.448598
0.958776 0.374451 0.448598
0.958776 0.374451 0.448598
0.958776 0.374451 0.448598
0.958776 0.374451 0.448598
0.958776 0.374451 0.448598
0.958776 0.374451 0.448598
0.958776 0.374451 0.448598
0.958776 0.374451 0.448598
0.958776 0.374451 0.448598
0.958776 0.374451 0.448598
0.958776 0.374451 0.448598
0.958776 0.374451 0.448598
0.958776 0.374451 0.448598
0.958776 0.374451 0.448598
0.958776 0.374451 0.448598
0.958776 0.374451 0.448598
0.958776 0.374451 0.448598
0.958776 0.374451 0.448598
0.958776 0.374451 0.448598
0.958776 0.374451 0.448598
0.958776 0.374451 0.448598
0.958776 0.374451 0.448598
0.958776 0.374451 0.448598
0.958776 0.374451 0.448598
0.958776 0.374451 0.448598
0.958776 0.374451 0.448598
0.958776 0.374451 0.448598
0.958776 0.374451 0.448598
0.958776 0.374451 0.448598
0.958776 0.374451 0.448598
0.958776 0.374451 0.448598
0.958776 0.374451 0.448598
0.958776 0.374451 0.448598
0.000000 0.030005 0.000273
0.000000 0.025344 0.000000
0.000373 0.021324 0.000582
0.000765 0.019651 0.000000
0.000000 0.018338 0.000360
0.000000 0.013678 0.000000
0.000967 0.012644 0.000892
0.000000 0.010690 0.000000
0.003121 0.008598 0.000000
0.014265 0.007680 0.000136
0.032840 0.006597 0.000000
0.052391 0.006490 0.000496
0.082110 0.004153 0.003117
0.113782 0.004440 0.004230
0.158943 0.004425 0.005788
0.207035 0.007675 0.008547
0.266664 0.007997 0.013258
0.339391 0.009687 0.019391
0.415047 0.014645 0.026723
0.500086 0.020720 0.037961
0.588447 0.027378 0.054613
0.669964 0.036850 0.074726
0.748540 0.053381 0.100477
0.812448 0.074563 0.132172
0.870487 0.098529 0.173497
0.922454 0.132286 0.223163
0.967185 0.170530 0.277269
0.964600 0.211828 0.336961
0.961239 0.249176 0.376195
0.961792 0.283467 0.395194
0.959801 0.323478 0.417125
0.959178 0.362455 0.440786
0.958776 0.374451 0.448598
0.958776 0.374451 0.448598
0.958776 0.374451 0.448598
0.958776 0.374451 0.448598
0.958776 0.374451 0.448598
0.958776 0.374451 0.448598
0.958776 0.374451 0.448598
0.958776 0.374451 0.448598
0.958776 0.374451 0.448598
0.958776 0.374451 0.448598
0.958776 0.374451 0.448598
0.958776 0.374451 0.448598
0.958776 0.374451 0.448598
0.958776 0.374451 0.448598
0.958776 0.374451 0.448598
0.958776 0.374451 0.448598
0.958776 0.374451 0.448598
0.958776 0.374451 0.448598
0.958776 0.374451 0.448598
0.958776 0.374451 0.448598
0.958776 0.374451 0.448598
0.958776 0.374451 0.448598
0.958776 0.374451 0.448598
0.958776 0.374451 0.448598
0.958776 0.374451 0.448598
0.958776 0.374451 0.448598
0.958776 0.374451 0.448598
0.958776 0.374451 0.448598
0.958776 0.374451 0.448598
0.958776 0.374451 0.448598
0.958776 0.374451 0.448598
0.958776 0.374451 0.448598
0.958776 0.374451 0.448598
0.000000 0.043683 0.000000
0.000555 0.037988 0.000000
0.000000 0.034025 0.000000
0.000000 0.030005 0.000273
0.000000 0.025344 0.000000
0.000000 0.023335 0.000000
0.000765 0.019651 0.000000
0.000000 0.018338 0.000360
0.000000 0.015351 0.000136
0.007028 0.013177 0.000000
0.021886 0.012177 0.000000
0.044175 0.010675 0.000496
0.067441 0.010486 0.000411
0.100482 0.009741 0.003254
0.137238 0.009249 0.003613
0.188461 0.009093 0.007125
0.243006 0.010194 0.012590
0.310064 0.010015 0.017523
0.385137 0.011986 0.024632
0.462162 0.015574 0.035425
0.551892 0.022543 0.046888
0.634386 0.034000 0.062785
0.717461 0.046764 0.087559
0.785084 0.067865 0.118500
0.847622 0.089074 0.153656
0.903508 0.116749 0.198664
0.953323 0.153542 0.255477
0.965988 0.192502 0.312905
0.964379 0.235784 0.368382
0.961611 0.268820 0.385429
0.961381 0.306123 0.408114
0.958020 0.346831 0.430044
0.958776 0.374451 0.448598
0.958776 0.374451 0.448598
0.958776 0.374451 0.448598
0.958776 0.374451 0.448598
0.958776 0.374451 0.448598
0.958776 0.374451 0.448598
0.958776 0.374451 0.448598
0.958776 0.374451 0.448598
0.958776 0.374451 0.448598
0.958776 0.374451 0.448598
0.958776 0.374451 0.448598
0.958776 0.374451 0.448598
0.958776 0.374451 0.448598
0.958776 0.374451 0.448598
0.958776 0.374451 0.448598
0.958776 0.374451 0.448598
0.958776 0.374451 0.448598
0.958776 0.374451 0.448598
0.958776 0.374451 0.448598
0.958776 0.374451 0.448598
0.958776 0.374451 0.448598
0.958776 0.374451 0.448598
0.958776 0.374451 0.448598
0.958776 0.374451 0.448598
0.958776 0.374451 0.448598
0.958776 0.374451 0.448598
0.958776 0.374451 0.448598
0.958776 0.374451 0.448598
0.958776 0.374451 0.448598
0.958776 0.374451 0.448598
0.958776 0.374451 0.448598
0.958776 0.374451 0.448598
0.958776 0.374451 0.448598
0.000535 0.061323 0.000000
0.000737 0.054316 0.001079
0.000545 0.049656 0.000000
0.000000 0.043683 0.000000
0.000000 0.038686 0.000000
0.000000 0.034025 0.000000
0.000000 0.030005 0.000273
0.000000 0.027019 0.000051
0.000000 0.023335 0.000000
0.004088 0.021243 0.000000
0.015625 0.018650 0.000051
0.034200 0.017567 0.000000
0.057465 0.017379 0.000000
0.089530 0.015992 0.000000
0.124916 0.016197 0.000153
0.166363 0.016263 0.002464
0.218563 0.017085 0.006952
0.283275 0.016291 0.012640
0.356002 0.017984 0.018773
0.427359 0.020372 0.024907
0.517876 0.022985 0.039606
0.599199 0.028132 0.056789
0.684037 0.039197 0.077124
0.758506 0.057819 0.102875
0.822807 0.076657 0.137055
0.880061 0.104307 0.178602
0.931053 0.136079 0.232484
0.966985 0.174512 0.291559
0.965375 0.218131 0.345305
0.963776 0.254115 0.378372
0.961592 0.289802 0.397372
0.959993 0.327802 0.420055
0.958585 0.370128 0.445669
0.958776 0.374451 0.448598
0.958776 0.374451 0.448598
0.958776 0.374451 0.448598
0.958776 0.374451 0.448598
0.958776 0.374451 0.448598
0.958776 0.374451 0.448598
0.958776 0.374451 0.448598
0.958776 0.374451 0.448598
0.958776 0.374451 0.448598
0.958776 0.374451 0.448598
0.958776 0.374451 0.448598
0.958776 0.374451 0.448598
0.958776 0.374451 0.448598
0.958776 0.374451 0.448598
0.958776 0.374451 0.448598
0.958776 0.374451 0.448598
0.958776 0.374451 0.448598
0.958776 0.374451 0.448598
0.958776 0.374451 0.448598
0.958776 0.374451 0.448598
0.958776 0.374451 0.448598
0.958776 0.374451 0.448598
0.958776 0.374451 0.448598
0.958776 0.374451 0.448598
0.958776 0.374451 0.448598
0.958776 0.374451 0.448598
0.958776 0.374451 0.448598
0.958776 0.374451 0.448598
0.958776 0.374451 0.448598
0.958776 0.374451 0.448598
0.958776 0.374451 0.448598
0.958776 0.374451 0.448598
0.000324 0.079660 0.000153
0.000133 0.074663 0.000683
0.000918 0.070980 0.000460
0.000000 0.062020 0.000000
0.000928 0.059312 0.000547
0.000000 0.053339 0.000102
0.000000 0.043683 0.000000
0.000000 0.038686 0.000000
0.000000 0.034025 0.000000
0.000000 0.032015 0.000000
0.007209 0.029504 0.000496
0.022461 0.026830 0.000000
0.048465 0.025247 0.000000
0.075838 0.022966 0.000000
0.106141 0.024286 0.000000
0.148957 0.023992 0.000000
0.198811 0.024535 0.003270
0.258439 0.024855 0.007979
0.331558 0.024873 0.013137
0.398809 0.029355 0.019269
0.484633 0.031409 0.032015
0.572410 0.035081 0.048446
0.651972 0.042600 0.066606
0.730357 0.054133 0.092886
0.796813 0.069597 0.121652
0.857590 0.092841 0.159516
0.911712 0.122551 0.207231
0.959182 0.159065 0.263066
0.965001 0.200839 0.323956
0.964571 0.240108 0.371312
0.961410 0.274818 0.389335
0.959811 0.313154 0.410289
0.958794 0.353806 0.434926
0.958776 0.374451 0.448598
0.958776 0.374451 0.448598
0.958776 0.374451 0.448598
0.958776 0.374451 0.448598
0.958776 0.374451 0.448598
0.958776 0.374451 0.448598
0.958776 0.374451 0.448598
0.958776 0.374451 0.448598
0.958776 0.374451 0.448598
0.958776 0.374451 0.448598
0.958776 0.374451 0.448598
0.958776 0.374451 0.448598
0.958776 0.374451 0.448598
0.958776 0.374451 0.448598
0.958776 0.374451 0.448598
0.958776 0.374451 0.448598
0.958776 0.374451 0.448598
0.958776 0.374451 0.448598
0.958776 0.374451 0.448598
0.958776 0.374451 0.448598
0.958776 0.374451 0.448598
0.958776 0.374451 0.448598
0.958776 0.374451 0.448598
0.958776 0.374451 0.448598
0.958776 0.374451 0.448598
0.958776 0.374451 0.448598
0.958776 0.374451 0.448598
0.958776 0.374451 0.448598
0.958776 0.374451 0.448598
0.958776 0.374451 0.448598
0.958776 0.374451 0.448598
0.958776 0.374451 0.448598
0.000304 0.102995 0.000000
0.000506 0.096325 0.000000
0.000000 0.088341 0.000000
0.000000 0.081671 0.000000
0.000133 0.074663 0.000683
0.000918 0.070980 0.000460
0.000000 0.062020 0.000000
0.000928 0.059312 0.000547
0.000000 0.053339 0.000102
0.000938 0.047645 0.000633
0.002700 0.045274 0.000000
0.013652 0.039695 0.000000
0.038288 0.038809 0.000000
0.062922 0.037923 0.000000
0.092641 0.035921 0.000374
0.132527 0.032361 0.000000
0.176321 0.033379 0.000000
0.240641 0.034593 0.004519
0.304961 0.035809 0.009452
0.371627 0.037641 0.013634
0.454713 0.042098 0.021188
0.541121 0.046466 0.037616
0.624398 0.053904 0.055023
0.700830 0.064156 0.075889
0.770024 0.078225 0.104656
0.834717 0.094716 0.141319
0.889433 0.116419 0.185883
0.940628 0.141183 0.241051
0.965998 0.183523 0.299148
0.963020 0.227166 0.356356
0.962597 0.259473 0.379569
0.960021 0.296834 0.399547
0.960768 0.335114 0.423208
0.958776 0.374451 0.448598
0.958776 0.374451 0.448598
0.958776 0.374451 0.448598
0.958776 0.374451 0.448598
