skills/darktable-colorist/assets/luts/REC709 2383 D65.cube
TITLE "Generated by Resolve"
LUT_3D_SIZE 5
0.0300908 0.0385443 0.0469215
0.166888 0.0649119 0.0493629
0.418082 0.0570382 0
0.640742 0.000503548 0.000457771
0.765591 0 0.0275578
0 0.15967 0.0882887
0.233234 0.213458 0.0671092
0.552499 0.291875 0
0.803922 0.389059 0.000167849
0.998962 0.698451 1.5259e-05
0 0.380331 0.138094
0.315679 0.476432 0.0573587
0.644678 0.550103 0.00688182
0.897154 0.673228 0
1 0.859876 0.0080415
0 0.595529 0.234073
0.466835 0.715419 0.168963
0.79089 0.78584 0.0903944
0.924361 0.81294 0.0903029
1 0.901442 0.288289
0 0.754223 0.470192
0.873457 0.908583 0.453696
0.993454 0.930785 0.46273
1 0.932601 0.48777
1 0.93753 0.529168
0.00015259 0.0344854 0.162631
0.173342 0.0630503 0.190265
0.433829 0.0153658 0.239124
0.663539 6.10361e-05 0.332082
0.798367 0 0.555413
0 0.187991 0.255726
0.219684 0.242008 0.270909
0.559777 0.273945 0.274327
0.764309 0.266239 0.266209
0.866224 0.312642 0.300664
0 0.43064 0.378302
0.0812695 0.493294 0.314229
0.636179 0.574655 0.301259
0.893309 0.676585 0.279118
1 0.881773 0.338125
0 0.650309 0.528038
0 0.664927 0.340841
0.759518 0.800381 0.294972
0.922347 0.823957 0.273426
1 0.922408 0.447486
0 0.811704 0.846372
0.145373 0.798779 0.54902
0.984161 0.940734 0.545342
1 0.941649 0.550072
1 0.943084 0.56759
0 0 0.339223
0.211734 9.15541e-05 0.383719
0.458228 0 0.42446
0.683833 0 0.520012
0.815 0 0.702296
0 0.221424 0.471839
0.189319 0.26392 0.504738
0.563806 0.293736 0.534874
0.774304 0.287526 0.60351
0.882551 0.344152 0.797086
0 0.463828 0.575128
0 0.537682 0.593256
0.616907 0.615488 0.611658
0.864561 0.634684 0.614633
0.965362 0.665492 0.625208
0 0.680369 0.71751
0 0.724727 0.708034
0.61561 0.825788 0.648127
0.900893 0.869276 0.649592
1 0.958312 0.70692
0 0.821057 0.921416
0 0.849821 0.922713
0.613184 0.905272 0.751156
0.999847 0.971206 0.754589
1 0.968704 0.753338
0 0 0.484092
0.291432 0 0.549523
0.559335 0 0.597711
0.698177 0 0.62858
0.822904 0 0.757046
0 0.279622 0.654566
0.138491 0.270054 0.66392
0.643412 0.298024 0.717723
0.777279 0.28809 0.725338
0.890288 0.367361 0.847471
0 0.546532 0.763302
0 0.622827 0.798398
0.597528 0.632151 0.807294
0.856565 0.651011 0.820722
0.961791 0.690272 0.933654
0 0.695598 0.819211
0 0.738323 0.831403
0.57995 0.847822 0.852293
0.883833 0.891646 0.866606
0.99852 0.909728 0.871687
0 0.825208 0.938201
0.000106813 0.852049 0.942596
0.558221 0.92665 0.964096
0.875685 0.973236 0.917327
1 0.991257 0.919768
0 0 0.60502
0.569787 0 0.71519
0.75346 3.0518e-05 0.747524
0.807675 0.0112612 0.766171
0.832883 0.0820478 0.787182
0 0.51783 0.841093
0.0842756 0.329397 0.772656
0.836576 0.364965 0.85124
0.883543 0.382956 0.860517
0.90161 0.417624 0.871275
0 0.691447 0.902861
0 0.787137 0.932982
0.577401 0.665141 0.914855
0.952728 0.695079 0.944518
0.965072 0.713054 0.948379
0 0.766857 0.930251
0 0.825742 0.942458
0.533974 0.918593 0.966644
0.866514 0.899535 0.977493
0.993896 0.918273 0.985824
0 0.830533 0.943709
4.57771e-05 0.854109 0.947021
0.551125 0.926238 0.969818
0.857786 0.978683 0.991943
1 1 0.999969
