skills/darktable-colorist/assets/luts/REC709 2383 D65.cube
TITLE "Generated by Resolve"
LUT_3D_SIZE 9
0.0300908 0.0385443 0.0469215
0.0803998 0.0510414 0.0509651
0.166888 0.0649119 0.0493629
0.281575 0.0714427 0.0358282
0.418082 0.0570382 0
0.536995 0.0173037 0
0.640742 0.000503548 0.000457771
0.712306 0 0.00669871
0.765591 0 0.0275578
0.0012665 0.0829328 0.066331
0.0928206 0.0989853 0.0682994
0.202167 0.121767 0.0641031
0.33547 0.142046 0.040116
0.487755 0.159075 1.5259e-05
0.617029 0.184466 0
0.726864 0.219181 1.5259e-05
0.816114 0.284764 0.00131228
0.927871 0.470558 0
0 0.15967 0.0882887
0.0827497 0.183627 0.0814679
0.233234 0.213458 0.0671092
0.385412 0.250935 0.0139315
0.552499 0.291875 0
0.687938 0.334371 0
0.803922 0.389059 0.000167849
0.897627 0.486275 4.57771e-05
0.998962 0.698451 1.5259e-05
0 0.260548 0.108644
0.0150301 0.295445 0.0901808
0.273014 0.33434 0.0479133
0.431678 0.371496 0.0157778
0.605417 0.424445 0.00390631
0.744121 0.482719 0.000244144
0.861646 0.554635 3.0518e-05
0.953323 0.651759 0
1 0.81387 0
0 0.380331 0.138094
0.00868238 0.426963 0.114351
0.315679 0.476432 0.0573587
0.495872 0.518669 0.0261387
0.644678 0.550103 0.00688182
0.784054 0.609277 0
0.897154 0.673228 0
0.981567 0.762936 0
1 0.859876 0.0080415
0 0.492897 0.18085
0.0405432 0.54548 0.150744
0.3738 0.601175 0.105714
0.572396 0.64509 0.0514839
0.715846 0.67747 0.00292973
0.807523 0.697643 0.0133364
0.915404 0.758999 0.00891127
0.98996 0.824857 0.0167239
1 0.879805 0.0567178
0 0.595529 0.234073
0.13373 0.656123 0.201892
0.466835 0.715419 0.168963
0.668757 0.758953 0.111772
0.79089 0.78584 0.0903944
0.871839 0.800488 0.0418402
0.924361 0.81294 0.0903029
0.992554 0.859815 0.146746
1 0.901442 0.288289
0.000167849 0.671672 0.313039
0.334234 0.749569 0.287297
0.621881 0.808331 0.265156
0.786206 0.844373 0.24564
0.885496 0.863172 0.237934
0.943328 0.874968 0.259037
0.97525 0.882307 0.273564
0.994812 0.888106 0.293355
1 0.920882 0.417731
0 0.754223 0.470192
0.682368 0.870893 0.459739
0.873457 0.908583 0.453696
0.956634 0.923888 0.454505
0.993454 0.930785 0.46273
1 0.931777 0.472816
1 0.932601 0.48777
1 0.93463 0.5066
1 0.93753 0.529168
0.0259403 0.0412451 0.0893568
0.0802319 0.0536202 0.0970474
0.170382 0.067216 0.105837
0.288136 0.0738689 0.114549
0.424048 0.0371405 0.123445
0.544793 0 0.147448
0.651057 0 0.189227
0.726284 0.000167849 0.258946
0.785199 0.000320439 0.401205
0 0.0915084 0.119402
0.0860151 0.106981 0.123613
0.212039 0.126574 0.125994
0.350576 0.137285 0.121782
0.492897 0.131914 0.113008
0.600885 0.124178 0.112551
0.690959 0.10576 0.11429
0.754955 0.10663 0.128176
0.807538 0.150179 0.154177
0 0.174319 0.157824
0.0164492 0.193423 0.145235
0.231678 0.225162 0.14316
0.398703 0.256596 0.133562
0.562142 0.281422 0.119585
0.684306 0.310704 0.115923
0.788693 0.350256 0.119554
0.872786 0.427863 0.125353
0.976562 0.644388 0.0935683
0 0.281163 0.200717
0 0.298634 0.162936
0.243381 0.344762 0.148638
0.430838 0.378897 0.127123
0.611093 0.42356 0.0922713
0.742473 0.473136 0.0932937
0.851392 0.537255 0.0646525
0.938079 0.631327 0.0816358
1 0.806851 0.0422217
0 0.405386 0.249439
0 0.413214 0.178149
0.248402 0.476036 0.146853
0.479011 0.522942 0.0956741
0.644099 0.552056 0.0478065
0.78143 0.606363 0.0298161
0.890639 0.667857 0.074342
0.970108 0.754376 0.0451362
1 0.862074 0.12517
0 0.520073 0.312139
3.0518e-05 0.523812 0.218296
0.281773 0.596109 0.181613
0.543374 0.648035 0.142779
0.707652 0.679988 0.0692607
0.80618 0.699474 0.0701457
0.910765 0.757366 0.0517891
0.986328 0.826795 0.137362
1 0.890455 0.262257
0 0.624659 0.391684
0 0.621057 0.270817
0.368933 0.705806 0.235935
0.635981 0.760159 0.207187
0.780652 0.789929 0.173922
0.869429 0.805432 0.134066
0.923766 0.815656 0.153658
0.991287 0.863844 0.239338
1 0.909606 0.356268
0 0.705348 0.502083
0.000411994 0.692592 0.347051
0.519097 0.794461 0.321096
0.758068 0.845594 0.301961
0.87599 0.86743 0.294697
0.940368 0.879438 0.296269
0.974212 0.886152 0.304753
0.994827 0.891127 0.3178
1 0.925917 0.455238
7.62951e-05 0.79765 0.738064
0 0.771801 0.50103
0.811032 0.902892 0.494392
0.944335 0.926726 0.491524
0.991012 0.93489 0.496254
1 0.935927 0.502068
1 0.936004 0.51136
1 0.937469 0.526055
1 0.939651 0.543893
0.00015259 0.0344854 0.162631
0.0800946 0.0496681 0.176516
0.173342 0.0630503 0.190265
0.294331 0.0666514 0.212238
0.433829 0.0153658 0.239124
0.557504 0 0.279484
0.663539 6.10361e-05 0.332082
0.738521 1.5259e-05 0.407904
0.798367 0 0.555413
0 0.095491 0.206744
0.0643473 0.114549 0.22414
0.210285 0.13312 0.236728
0.355047 0.143618 0.251209
0.501167 0.138125 0.266453
0.611475 0.13193 0.290761
0.703334 0.116732 0.328756
0.768917 0.120272 0.394476
0.825864 0.166186 0.551202
0 0.187991 0.255726
1.5259e-05 0.211917 0.265141
0.219684 0.242008 0.270909
0.395773 0.265278 0.275547
0.559777 0.273945 0.274327
0.677485 0.273289 0.270497
0.764309 0.266239 0.266209
0.819913 0.270741 0.274876
0.866224 0.312642 0.300664
0 0.301762 0.31577
0 0.326146 0.307912
0.192462 0.366049 0.296788
0.42269 0.402304 0.298543
0.609751 0.437781 0.295796
0.745357 0.473167 0.289876
0.851926 0.522652 0.283818
0.932479 0.610529 0.294835
1 0.80827 0.312642
0 0.43064 0.378302
0 0.447288 0.350683
0.0812695 0.493294 0.314229
0.449973 0.546593 0.309545
0.636179 0.574655 0.301259
0.782055 0.622263 0.29073
0.893309 0.676585 0.279118
0.970794 0.762982 0.295064
1 0.881773 0.338125
0 0.5467 0.446738
0 0.560937 0.412619
0.0325475 0.590616 0.326986
0.486549 0.662394 0.312291
0.69247 0.698451 0.298085
0.80032 0.714336 0.28661
0.912703 0.770733 0.273304
0.986984 0.839445 0.303304
1 0.908217 0.389319
0 0.650309 0.528038
0 0.660014 0.485298
0 0.664927 0.340841
0.55378 0.760021 0.315267
0.759518 0.800381 0.294972
0.863691 0.816251 0.283604
0.922347 0.823957 0.273426
0.992782 0.874479 0.326513
1 0.922408 0.447486
0 0.728634 0.640345
0 0.734768 0.590494
3.0518e-05 0.72433 0.398108
0.681743 0.840085 0.375586
0.854627 0.873274 0.362158
0.934295 0.886549 0.35581
0.972396 0.892409 0.354498
0.994629 0.895903 0.35584
1 0.933745 0.51017
0 0.811704 0.846372
0 0.820172 0.81442
0.145373 0.798779 0.54902
0.908583 0.928313 0.545922
0.984161 0.940734 0.545342
0.999985 0.942565 0.546731
1 0.941649 0.550072
1 0.942168 0.558221
1 0.943084 0.56759
0 0 0.253468
0.0837873 0.017258 0.271199
0.188296 0.0345312 0.291203
0.301686 0.0366369 0.307897
0.446479 1.5259e-05 0.341878
0.570108 0 0.385122
0.674891 0 0.440391
0.748791 0 0.515221
0.808454 0 0.64921
0 0.0898146 0.307393
0.0190738 0.115801 0.330938
0.21799 0.134813 0.352544
0.358694 0.143191 0.364981
0.507347 0.136141 0.388037
0.618647 0.127367 0.417823
0.71075 0.113252 0.463294
0.77644 0.112398 0.534722
0.833509 0.156222 0.679591
0 0.207538 0.370779
0 0.229969 0.390845
0.205402 0.255467 0.398108
0.393759 0.278157 0.411521
0.562585 0.287465 0.429603
0.682841 0.287831 0.451698
0.771405 0.283284 0.487098
0.82919 0.291539 0.552605
0.878492 0.339956 0.71487
0 0.320912 0.424109
0 0.345052 0.434531
0.1131 0.386984 0.436927
0.411902 0.422705 0.448905
0.603464 0.44213 0.45362
0.733822 0.450355 0.454139
0.826596 0.450141 0.451942
0.883207 0.447837 0.450431
0.924666 0.485832 0.463523
0 0.451102 0.488182
0 0.47126 0.487724
0.0290379 0.521447 0.481102
0.404379 0.567727 0.473823
0.626719 0.598917 0.476585
0.773465 0.636347 0.478019
0.881834 0.675731 0.477852
0.959884 0.74725 0.481346
1 0.901457 0.503838
0 0.566308 0.557687
0 0.585458 0.550591
6.10361e-05 0.62562 0.526818
0.385489 0.677317 0.49044
0.665156 0.722606 0.491081
0.789899 0.740398 0.488487
0.902342 0.78999 0.486366
0.979477 0.854292 0.490593
1 0.93077 0.540352
0 0.668315 0.63801
0 0.683223 0.624537
9.15541e-05 0.706767 0.584466
0.358679 0.758541 0.504173
0.710887 0.821195 0.502068
0.843183 0.841657 0.497337
0.91107 0.850248 0.493965
0.985199 0.894499 0.501503
1 0.941222 0.575692
0 0.743938 0.739406
0 0.755581 0.724773
0 0.77084 0.681956
0.338506 0.802441 0.529152
0.792111 0.886107 0.524865
0.912047 0.905058 0.518898
0.960815 0.912016 0.516075
0.986877 0.915389 0.51487
1 0.947616 0.607904
0 0.817838 0.897704
0 0.829389 0.893568
0 0.845335 0.877791
0.381796 0.846098 0.634363
0.957977 0.94966 0.636637
0.999512 0.955795 0.635233
1 0.95375 0.632059
1 0.953124 0.632868
1 0.952743 0.633967
0 0 0.339223
0.0835431 4.57771e-05 0.358801
0.211734 9.15541e-05 0.383719
0.334798 1.5259e-05 0.405005
0.458228 0 0.42446
0.580453 0 0.468208
0.683833 0 0.520012
0.757366 0 0.591104
0.815 0 0.702296
0 0.0603952 0.395346
0.000198367 0.105608 0.421317
0.231861 0.131838 0.450462
0.383886 0.137743 0.468437
0.511345 0.128099 0.477577
0.623682 0.115694 0.509972
0.716197 0.100572 0.553918
0.781674 0.0942245 0.621546
0.83888 0.157656 0.739727
0 0.221424 0.471839
0 0.246281 0.498894
0.189319 0.26392 0.504738
0.409827 0.287007 0.52578
0.563806 0.293736 0.534874
0.685023 0.293523 0.564034
0.774304 0.287526 0.60351
0.8327 0.294026 0.669062
0.882551 0.344152 0.797086
0 0.348531 0.530114
0 0.377371 0.552773
0.0653391 0.415259 0.557107
0.400992 0.436332 0.569757
0.599786 0.455756 0.580163
0.732372 0.465385 0.601801
0.826261 0.467124 0.630564
0.884794 0.468727 0.68809
0.927535 0.515297 0.844831
0 0.463828 0.575128
0 0.485084 0.587274
0 0.537682 0.593256
0.381537 0.584741 0.602472
0.616907 0.615488 0.611658
0.762921 0.630579 0.614939
0.864561 0.634684 0.614633
0.926421 0.634684 0.614435
0.965362 0.665492 0.625208
0 0.580377 0.644099
0 0.600214 0.64889
4.57771e-05 0.643275 0.647135
0.344839 0.698344 0.642145
0.620432 0.735866 0.632532
0.779919 0.758358 0.635065
0.892073 0.794705 0.637934
0.96733 0.849699 0.64361
1 0.941604 0.673869
0 0.680369 0.71751
0 0.696773 0.716579
0 0.724727 0.708034
0.28333 0.784009 0.686824
0.61561 0.825788 0.648127
0.816159 0.858732 0.65037
0.900893 0.869276 0.649592
0.975601 0.909667 0.657053
1 0.958312 0.70692
0 0.753307 0.808408
0 0.7664 0.805447
0 0.786511 0.795682
0.175235 0.833997 0.761318
0.607263 0.872862 0.670054
0.873198 0.919524 0.671229
0.945647 0.93019 0.669871
0.977234 0.934112 0.669261
1 0.964706 0.732815
0 0.821057 0.921416
0 0.83267 0.922835
0 0.849821 0.922713
0.222507 0.880644 0.916991
0.613184 0.905272 0.751156
0.976974 0.968521 0.756146
0.999847 0.971206 0.754589
1 0.969604 0.753262
1 0.968704 0.753338
0 0 0.413947
0.0857252 0 0.437751
0.244251 0 0.46804
0.380499 0 0.492439
0.503716 0 0.513359
0.589288 0 0.530541
0.691356 3.0518e-05 0.58146
0.763973 0 0.645579
0.819379 0 0.735546
0 0.018555 0.476738
0 0.0901961 0.493858
0.252735 0.130831 0.531304
0.416327 0.1346 0.554025
0.545953 0.121202 0.566812
0.627802 0.105608 0.57557
0.720562 0.092958 0.619471
0.78616 0.0745403 0.679057
0.844068 0.173342 0.774411
0 0.244297 0.564309
0 0.265919 0.587472
0.162829 0.268101 0.591073
0.436255 0.291997 0.620539
0.596704 0.297276 0.632578
0.686061 0.294957 0.637736
0.776059 0.287556 0.67805
0.83505 0.294926 0.733761
0.886305 0.353674 0.830808
0 0.38233 0.625971
0 0.414725 0.649927
0.0330053 0.446693 0.66038
0.389609 0.4448 0.667292
0.620554 0.466163 0.683482
0.730343 0.471916 0.689097
0.82533 0.472602 0.724941
0.885084 0.473182 0.78024
0.929671 0.522896 0.886137
0 0.502892 0.674006
0 0.530785 0.690486
9.15541e-05 0.575647 0.702068
0.353948 0.615534 0.709453
0.607065 0.626078 0.718654
0.75697 0.641001 0.72549
0.859571 0.646571 0.750866
0.922332 0.649348 0.797192
0.961135 0.684901 0.909331
0 0.590402 0.708217
0 0.608835 0.717189
0.000289921 0.652522 0.724681
0.316442 0.708354 0.729961
0.605661 0.748104 0.743557
0.77052 0.77055 0.750225
0.881636 0.77966 0.75198
0.949645 0.782406 0.752422
0.988174 0.803693 0.759793
0 0.68986 0.778347
0 0.705638 0.782101
0 0.733364 0.784283
0.216922 0.794659 0.780377
0.593225 0.841413 0.783963
0.773602 0.867948 0.767422
0.891951 0.88275 0.769406
0.967086 0.914748 0.775448
1 0.968277 0.805112
0 0.759213 0.852338
0 0.772595 0.854017
0 0.793545 0.855039
0.0720989 0.844114 0.848188
0.573632 0.893324 0.843488
0.770382 0.919371 0.78584
0.925673 0.942626 0.787945
0.96936 0.947967 0.787915
1 0.977951 0.829664
0 0.82298 0.932311
3.0518e-05 0.834318 0.93434
0.000167849 0.851133 0.93669
0.171817 0.881804 0.939727
0.567025 0.926436 0.950484
0.764858 0.946303 0.844053
0.988739 0.982116 0.848264
1 0.982666 0.847272
1 0.981476 0.846601
0 0 0.484092
0.112276 0 0.515038
0.291432 0 0.549523
0.444968 0 0.576486
0.559335 0 0.597711
0.639902 3.0518e-05 0.61442
0.698177 0 0.62858
0.769436 6.10361e-05 0.682795
0.822904 0 0.757046
0 0.0150301 0.55848
0 0.0592966 0.560876
0.288106 0.12723 0.608484
0.471031 0.121065 0.634058
0.593469 0.107698 0.648997
0.671702 0.0934462 0.658335
0.724422 0.0900435 0.666056
0.790631 0.0679789 0.716884
0.849454 0.194156 0.794934
0 0.279622 0.654566
0 0.296574 0.67332
0.138491 0.270054 0.66392
0.485817 0.295949 0.703624
0.643412 0.298024 0.717723
0.728405 0.292683 0.722896
0.777279 0.28809 0.725338
0.837201 0.297108 0.771771
0.890288 0.367361 0.847471
0 0.435035 0.719539
0 0.467353 0.741833
6.10361e-05 0.491783 0.754101
0.37818 0.449668 0.748272
0.652842 0.47335 0.77174
0.765743 0.476265 0.778103
0.824582 0.47541 0.780407
0.885252 0.474968 0.825269
0.932845 0.537987 0.901595
0 0.546532 0.763302
0 0.58172 0.783322
0 0.622827 0.798398
0.316472 0.652171 0.801678
0.597528 0.632151 0.807294
0.77879 0.648508 0.818128
0.856565 0.651011 0.820722
0.920607 0.652338 0.861692
0.961791 0.690272 0.933654
0 0.631479 0.795102
0 0.658351 0.807568
0 0.696864 0.819059
0.238926 0.749599 0.822721
0.58996 0.780362 0.839033
0.761578 0.778058 0.84445
0.87538 0.787152 0.848219
0.943862 0.791363 0.879149
0.982101 0.815167 0.950881
0 0.695598 0.819211
0 0.710552 0.824262
0 0.738323 0.831403
0.134051 0.799985 0.834104
0.57995 0.847822 0.852293
0.762219 0.876799 0.862364
0.883833 0.891646 0.866606
0.958144 0.897536 0.867796
0.99852 0.909728 0.871687
0 0.764202 0.879927
0 0.776822 0.882689
0 0.796551 0.886687
0.0674449 0.847944 0.888319
0.559686 0.898878 0.90161
0.754269 0.931411 0.903822
0.884535 0.947814 0.881834
0.962783 0.957855 0.883558
1 0.986557 0.905516
0 0.825208 0.938201
3.0518e-05 0.835966 0.939971
0.000106813 0.852049 0.942596
0.138796 0.881788 0.946105
0.558221 0.92665 0.964096
0.740246 0.958129 0.97258
0.875685 0.973236 0.917327
0.997314 0.991821 0.920851
1 0.991257 0.919768
0 0 0.544869
0.185626 0 0.587884
0.379767 0 0.626337
0.538354 0 0.653681
0.637919 0 0.672419
0.706416 0 0.687251
0.746487 0 0.699138
0.773739 0 0.71014
0.826658 0.0196536 0.772351
0 0.124681 0.643351
1.5259e-05 0.0463111 0.61825
0.359319 0.130541 0.679332
0.55877 0.115877 0.706188
0.665293 0.0910201 0.719676
0.730571 0.0835889 0.728374
0.768795 0.0773785 0.736156
0.794903 0.0850385 0.74403
0.855528 0.222644 0.810376
0 0.355291 0.743175
0 0.360143 0.756603
0.119509 0.278584 0.719371
0.57142 0.307774 0.772625
0.714382 0.305699 0.786053
0.783475 0.30135 0.79118
0.818067 0.29984 0.794186
0.839323 0.301915 0.796902
0.895552 0.390204 0.860655
0 0.508186 0.802014
0 0.544701 0.82446
3.0518e-05 0.567269 0.835813
0.36762 0.454688 0.809155
0.719448 0.481559 0.843046
0.821408 0.481041 0.849104
0.863005 0.478386 0.850889
0.885618 0.477668 0.851881
0.936812 0.55935 0.910826
0 0.608469 0.839612
0 0.646067 0.858579
0 0.691585 0.874662
0.241901 0.715084 0.877836
0.5888 0.635676 0.872526
0.82591 0.654307 0.889662
0.891066 0.654231 0.892668
0.919722 0.65388 0.893721
0.963394 0.702083 0.942748
0 0.679515 0.865965
0 0.71043 0.878477
0 0.752667 0.891859
0.0715801 0.802853 0.897246
0.569131 0.82948 0.913924
0.753414 0.781674 0.91371
0.900328 0.792325 0.921141
0.941512 0.793225 0.92253
0.982345 0.820523 0.965484
0 0.729625 0.885084
0 0.750271 0.892073
0 0.780743 0.900542
0.0667277 0.834287 0.905959
0.557687 0.881071 0.924468
0.750927 0.904997 0.936233
0.876554 0.8963 0.938231
0.953368 0.902266 0.9411
0.994247 0.916457 0.978637
0 0.767544 0.898497
0 0.77998 0.901839
0 0.79884 0.906569
0.0650187 0.849744 0.910765
0.552026 0.900847 0.929137
0.747692 0.934386 0.942473
0.8766 0.95349 0.949493
0.957473 0.963699 0.95314
1 0.970871 0.954574
0 0.827832 0.941848
3.0518e-05 0.837949 0.943358
7.62951e-05 0.853101 0.945434
0.116716 0.881804 0.948486
0.553964 0.926452 0.967941
0.734524 0.958068 0.980865
0.862074 0.979049 0.987518
0.952499 0.990646 0.969558
1 0.996918 0.970642
0 0 0.60502
0.344656 0 0.678752
0.569787 0 0.71519
0.690715 1.5259e-05 0.734752
0.75346 3.0518e-05 0.747524
0.786603 0 0.75671
0.807675 0.0112612 0.766171
0.820172 0.0328527 0.775326
0.832883 0.0820478 0.787182
0 0.316091 0.764721
0 0.0979934 0.675563
0.556451 0.183505 0.762844
0.715709 0.162249 0.781308
0.781323 0.158343 0.78996
0.814343 0.170169 0.797147
0.835172 0.194247 0.805524
0.850141 0.225772 0.814679
0.862989 0.260517 0.824613
0 0.51783 0.841093
0 0.535302 0.857114
0.0842756 0.329397 0.772656
0.750912 0.368185 0.84419
0.836576 0.364965 0.85124
0.868177 0.370657 0.855756
0.883543 0.382956 0.860517
0.894209 0.39884 0.86569
0.90161 0.417624 0.871275
0 0.628489 0.880339
0 0.673548 0.900801
0 0.720989 0.914855
0.350103 0.511315 0.858503
0.878141 0.542306 0.906325
0.916762 0.546822 0.909804
0.92987 0.556619 0.912749
0.935912 0.567849 0.915602
0.940322 0.577447 0.918044
0 0.691447 0.902861
0 0.731899 0.918959
0 0.787137 0.932982
0.0620279 0.841108 0.94049
0.577401 0.665141 0.914855
0.928328 0.687312 0.941741
0.952728 0.695079 0.944518
0.960647 0.704738 0.946654
0.965072 0.713054 0.948379
0 0.732265 0.918196
0 0.765911 0.928512
0 0.81117 0.938857
0.0599222 0.863935 0.946426
0.535668 0.906126 0.963531
0.742412 0.79472 0.953307
0.962402 0.810803 0.967361
0.977676 0.818982 0.969284
0.982651 0.826322 0.970596
0 0.766857 0.930251
0 0.790326 0.93576
0 0.825742 0.942458
0.0673533 0.871763 0.948409
0.533974 0.918593 0.966644
0.731136 0.948775 0.980514
0.866514 0.899535 0.977493
0.985916 0.912154 0.98471
0.993896 0.918273 0.985824
0 0.798093 0.937896
0 0.815015 0.940764
0 0.840269 0.944778
0.0779278 0.877363 0.949416
0.542245 0.923278 0.968444
0.729931 0.955779 0.982437
0.86128 0.97583 0.990829
0.951019 0.965454 0.991653
0.998291 0.972595 0.993423
0 0.830533 0.943709
3.0518e-05 0.839902 0.944945
4.57771e-05 0.854109 0.947021
0.0852064 0.881819 0.950164
0.551125 0.926238 0.969818
0.731044 0.957717 0.983322
0.857786 0.978683 0.991943
0.945129 0.992233 0.99733
1 1 0.999969
