skills/darktable-colorist/assets/luts/REC709 2383 D65.cube
TITLE "Generated by Resolve"
LUT_3D_SIZE 65
0.0300908 0.0385443 0.0469215
0.0349279 0.0397192 0.0476234
0.0366217 0.0410925 0.0484016
0.0403449 0.0425269 0.0490883
0.0458228 0.0439765 0.0496834
0.0549783 0.0455787 0.0501106
0.0645457 0.0471809 0.0504921
0.0730297 0.0490425 0.0507668
0.0803998 0.0510414 0.0509651
0.0874647 0.0531014 0.0511635
0.0938888 0.055314 0.0513008
0.100603 0.057496 0.0514687
0.112001 0.0592508 0.0514534
0.122744 0.0607614 0.0512856
0.136736 0.062211 0.0508736
0.152117 0.0635843 0.0502022
0.166888 0.0649119 0.0493629
0.181338 0.0664378 0.0485847
0.195331 0.0679026 0.0477302
0.208972 0.0691539 0.04654
0.223087 0.0703593 0.0450599
0.236927 0.0715648 0.0436561
0.251102 0.0720378 0.0416571
0.266423 0.0717479 0.0387884
0.281575 0.0714427 0.0358282
0.297292 0.0706035 0.0320897
0.314336 0.068513 0.0255436
0.331151 0.0664683 0.0190127
0.347875 0.0644541 0.0126345
0.365881 0.0624857 0.00720226
0.383642 0.0607156 0.0033875
0.401205 0.0590982 0.000793469
0.418082 0.0570382 0
0.434607 0.0547951 0
0.451072 0.0525673 0
0.466789 0.0488899 0
0.48101 0.0431983 0
0.495186 0.0376898 0
0.509331 0.0322271 0
0.523171 0.0246891 0
0.536995 0.0173037 0
0.550881 0.00996414 0
0.56463 0.00436408 0
0.577935 0.00318914 0
0.591348 0.00204471 0
0.604898 0.00231937 0
0.616815 0.00173953 0
0.628717 0.00106813 0
0.640742 0.000503548 0.000457771
0.651057 0.000503548 0.0021973
0.660746 0.000915541 0.0039826
0.67068 0.00132753 0.00578317
0.679545 0.000701915 0.00677501
0.687984 0 0.00770581
0.696757 0 0.00918593
0.704463 0 0.00814832
0.712306 0 0.00669871
0.720027 0 0.00703441
0.727275 0 0.00654612
0.734661 0 0.00616464
0.74139 0 0.0105135
0.748043 0 0.0147707
0.754116 0 0.0189975
0.759823 0 0.0231632
0.765591 0 0.0275578
0.0292058 0.044358 0.0494698
0.0352026 0.0456703 0.0502022
0.0372778 0.0472572 0.0510414
0.0417334 0.0487678 0.0517433
0.047303 0.0502174 0.0523537
0.0569162 0.0517281 0.0527352
0.0664225 0.0531472 0.0530098
0.0750134 0.0549325 0.0532235
0.082826 0.0568246 0.0533761
0.0902419 0.0587778 0.0535134
0.0968185 0.0608377 0.053666
0.104051 0.0628977 0.0538186
0.115892 0.0648508 0.0538643
0.127123 0.0664683 0.053666
0.141741 0.0679637 0.0532235
0.157412 0.0693217 0.0526436
0.172595 0.0707256 0.0518959
0.187549 0.0724651 0.0511177
0.201907 0.0740063 0.0503243
0.216068 0.0753185 0.0487984
0.230564 0.0764324 0.0470588
0.244724 0.0775311 0.0454414
0.259297 0.0781415 0.0434577
0.274937 0.0780804 0.0404212
0.290349 0.0780652 0.0373846
0.306218 0.0773327 0.0335699
0.323537 0.075761 0.0271611
0.340658 0.074403 0.0203861
0.357748 0.0731518 0.0138094
0.376074 0.0723125 0.00825513
0.394064 0.0711223 0.00361639
0.411978 0.0702831 0.000793469
0.429175 0.0694743 0
0.446036 0.0686961 0
0.462684 0.0675364 0
0.47866 0.066392 0
0.49305 0.064622 0
0.507301 0.0621042 0
0.521569 0.0596017 0
0.535515 0.0550393 0
0.549264 0.0508736 0
0.563027 0.0471656 0
0.576623 0.0437781 0
0.589746 0.0411383 0
0.60325 0.0411688 0
0.616831 0.0385901 0
0.628656 0.0374762 0
0.640513 0.0365606 0
0.652323 0.0341802 0.00148013
0.662684 0.0341344 0.00299077
0.672496 0.0353857 0.00267033
0.682551 0.0367285 0.00230411
0.691539 0.035584 0.00187686
0.700221 0.0343786 0.00114443
0.709209 0.0329137 0.000671397
0.717174 0.0287633 0.000137331
0.725429 0.0249943 0
0.733776 0.0272221 0
0.742107 0.0327916 0
0.750973 0.0419471 0.00198367
0.759411 0.0547494 0.00686656
0.768185 0.0695811 0.0115511
0.776883 0.0879683 0.0162966
0.786145 0.110567 0.0210574
0.797055 0.132982 0.0255283
0.0302892 0.0475776 0.052018
0.0369268 0.049073 0.052781
0.0390021 0.0506447 0.0535744
0.043534 0.0520333 0.0542153
0.0487221 0.0533608 0.0547494
0.0588388 0.0549172 0.0551308
0.0683299 0.0563363 0.0554055
0.076997 0.0581979 0.0556039
0.0852979 0.0601663 0.0557107
0.0928206 0.0621347 0.0558328
0.0995956 0.0641489 0.0559396
0.107286 0.0662852 0.0560616
0.119387 0.068574 0.0561379
0.131182 0.0706798 0.0559854
0.146319 0.0724498 0.0555276
0.162203 0.0740215 0.0549783
0.177676 0.0756085 0.0542
0.192905 0.0774395 0.053315
0.207584 0.0793164 0.0525521
0.222278 0.0811017 0.0510414
0.237186 0.0826581 0.0493324
0.251469 0.0839551 0.0476387
0.266499 0.0848554 0.0449989
0.282521 0.0852827 0.0413977
0.298116 0.0856031 0.038117
0.31426 0.0854658 0.0341497
0.331838 0.0846876 0.027863
0.349218 0.084062 0.020798
0.366415 0.0831311 0.0141146
0.384771 0.0824445 0.00854505
0.403113 0.0823835 0.00323491
0.4215 0.0832227 0.000671397
0.439094 0.0843519 0
0.456138 0.0847028 0
0.473121 0.0850996 0
0.489433 0.0857862 0
0.504005 0.0867781 0
0.518547 0.0874495 0
0.533013 0.0874342 0
0.546914 0.0867781 0
0.560708 0.0863966 0
0.574563 0.0865797 0
0.588281 0.0859236 0
0.601663 0.0834974 0
0.615183 0.0811322 0
0.62884 0.0800183 0
0.640925 0.0816815 0
0.65301 0.0825666 0.000274662
0.665019 0.0811933 0.00132753
0.675456 0.0812543 0
0.685359 0.0831311 0
0.695552 0.0852064 0
0.704997 0.085481 0
0.714214 0.0852827 0
0.723751 0.0872816 0
0.732418 0.0914626 0
0.741421 0.0947433 0
0.7505 0.100923 0
0.759503 0.109834 0
0.769375 0.119539 0.00378424
0.779126 0.132311 0.00843824
0.789425 0.147112 0.0128786
0.799954 0.16492 0.0173495
0.811444 0.187198 0.0195468
0.824903 0.215122 0.0211948
0.0306401 0.0516365 0.0543832
0.0372778 0.0532082 0.0551308
0.0390784 0.0547494 0.0558785
0.0441291 0.0562142 0.0564431
0.0493477 0.0575723 0.0569619
0.0604105 0.0593576 0.0573434
0.0698405 0.0608377 0.0576181
0.0787671 0.0629129 0.0578317
0.0872663 0.0650187 0.0579538
0.0950484 0.0673075 0.0581216
0.102266 0.0696727 0.0583047
0.110307 0.0718395 0.0583658
0.122805 0.0741131 0.0581979
0.134768 0.0762798 0.0580148
0.150286 0.0781109 0.0575265
0.166583 0.0798505 0.0569924
0.182208 0.0815137 0.0562295
0.197574 0.0832685 0.0552529
0.21265 0.0850233 0.0543526
0.227543 0.0867323 0.0529488
0.242588 0.0887617 0.051133
0.257374 0.0909133 0.049134
0.272969 0.0927291 0.0462501
0.289067 0.0937362 0.0425116
0.304936 0.0947738 0.0388495
0.321569 0.0956436 0.0340581
0.339544 0.0961013 0.0272984
0.357046 0.0962539 0.0199893
0.374578 0.0965744 0.0131075
0.393515 0.097612 0.0083772
0.412284 0.0986954 0.0037232
0.43064 0.0994278 0.00062562
0.448203 0.100649 0
0.465461 0.102052 0
0.482658 0.103502 0
0.49897 0.10457 0
0.513741 0.105684 0
0.528511 0.106859 0
0.543328 0.108095 0
0.557549 0.109133 0
0.571633 0.109773 0
0.585718 0.110353 0
0.599619 0.111101 0
0.613062 0.112154 0
0.626657 0.113207 0
0.640406 0.113863 0
0.652598 0.115343 0
0.664637 0.115633 0.000320439
0.676829 0.11577 0.000732433
0.68751 0.116365 4.57771e-05
0.69781 0.117525 0
0.7084 0.118257 0
0.718059 0.119814 0
0.727489 0.121874 0
0.737346 0.125093 0
0.746548 0.130907 0
0.756146 0.137209 0
0.765866 0.145022 0
0.775692 0.154833 0.00109865
0.78613 0.16669 0.0056611
0.796536 0.182055 0.00862135
0.807858 0.199664 0.0118715
0.819669 0.22063 0.0152895
0.832685 0.245243 0.0136873
0.847913 0.274601 0.00257877
0.0304723 0.0559396 0.0565652
0.0370947 0.0575113 0.0572671
0.0383764 0.0590524 0.0579538
0.044007 0.0605936 0.0584726
0.0501259 0.0621042 0.0589151
0.0610971 0.0640269 0.0592966
0.0708782 0.0657664 0.0596017
0.0798962 0.0681163 0.0598154
0.0886854 0.0704814 0.0599527
0.0967422 0.073106 0.0601205
0.104005 0.0757 0.0603037
0.112886 0.0782483 0.0603037
0.125551 0.0807813 0.06009
0.137697 0.083299 0.0598917
0.154101 0.0856947 0.0591897
0.170397 0.0877394 0.0586252
0.186404 0.0898756 0.0578012
0.202457 0.0923476 0.0565805
0.217578 0.0944686 0.0556191
0.232822 0.0967117 0.0541085
0.24831 0.0991073 0.0518654
0.263203 0.101305 0.0498207
0.278843 0.103075 0.0469215
0.295277 0.104509 0.0425116
0.311467 0.105959 0.0381476
0.328115 0.106783 0.0332952
0.34612 0.107286 0.0266117
0.363943 0.107927 0.0180972
0.381949 0.108827 0.0102235
0.401053 0.110063 0.00605783
0.42002 0.11136 0.00196841
0.438911 0.112963 4.57771e-05
0.456947 0.115023 0
0.474495 0.116823 0
0.491783 0.118303 0.000167849
0.508232 0.119707 0.000106813
0.523156 0.121279 0
0.538094 0.122942 0
0.552926 0.124254 0
0.567132 0.125292 0
0.581277 0.126314 0
0.595544 0.127535 0
0.609705 0.128832 0
0.623346 0.129885 0
0.637156 0.130907 0
0.651164 0.132067 0
0.663386 0.133516 0.000122072
0.675441 0.134325 0.000534066
0.687739 0.134844 0.000946059
0.698497 0.135637 0.000244144
0.708965 0.137804 0
0.719951 0.142077 0
0.729961 0.14696 0
0.739788 0.151949 0
0.750042 0.157595 0
0.759426 0.164416 0
0.769268 0.171374 0
0.779522 0.181231 0
0.790051 0.193545 0.00257877
0.801129 0.207614 0.00630198
0.812268 0.224292 0.0100404
0.824125 0.242741 0.00799573
0.836713 0.263706 0.00196841
0.851026 0.289342 0.00218204
0.867918 0.321126 0.000869764
0.0216831 0.0631418 0.0587778
0.0292058 0.0648203 0.0594797
0.0313115 0.066392 0.0601511
0.0413214 0.068101 0.0606088
0.0483406 0.0696574 0.0610208
0.0614481 0.0715496 0.0612802
0.0711376 0.0732891 0.0615702
0.0806439 0.0757916 0.061799
0.089662 0.0782177 0.0619516
0.0977493 0.0808728 0.062089
0.105425 0.0836194 0.0622416
0.114611 0.0861372 0.0621958
0.127794 0.0887312 0.0618601
0.140322 0.0912947 0.0615854
0.156909 0.0936446 0.0608682
0.173831 0.095964 0.0601053
0.190082 0.0982071 0.0592355
0.206088 0.100649 0.0580148
0.221775 0.10309 0.0567025
0.237369 0.105516 0.0550546
0.252934 0.107942 0.0528115
0.268254 0.110369 0.0506447
0.284489 0.11249 0.0474556
0.301045 0.113985 0.043183
0.317342 0.115511 0.0387579
0.334585 0.11693 0.0327001
0.353017 0.118013 0.0247959
0.370977 0.118746 0.0166171
0.389075 0.119753 0.00883497
0.408606 0.121736 0.00588998
0.427955 0.123705 0.00291447
0.446799 0.125154 3.0518e-05
0.464775 0.127199 0
0.482414 0.129259 9.15541e-05
0.499886 0.131197 0.000366217
0.516426 0.132876 0.00030518
0.531487 0.134371 0
0.546593 0.136019 0
0.56173 0.137728 0
0.576196 0.139254 0
0.590555 0.14052 0
0.604929 0.141726 0
0.619089 0.143069 0
0.632807 0.144549 0
0.646708 0.14612 0
0.660792 0.147601 0
0.672816 0.149004 0.000213626
0.685115 0.151934 7.62951e-05
0.697704 0.154986 0
0.708812 0.158618 0
0.71957 0.162707 0
0.730663 0.166888 0
0.74078 0.171664 0
0.750729 0.176944 0
0.761349 0.184314 0
0.771206 0.193362 0
0.781567 0.203098 0
0.792172 0.214313 0.000244144
0.80296 0.22771 0.00422675
0.814267 0.241978 0.00231937
0.826017 0.258183 0.00144961
0.838682 0.276982 0.00180056
0.85214 0.299397 0.00163272
0.867247 0.326665 0
0.884962 0.359777 1.5259e-05
0.0132143 0.0694896 0.0607462
0.0232242 0.0713207 0.0614328
0.0274815 0.0729992 0.0620737
0.0378424 0.0747082 0.0625315
0.047013 0.0764172 0.0629435
0.06009 0.078294 0.0632181
0.0715801 0.0800793 0.0633707
0.0810407 0.0825666 0.0635996
0.0903182 0.0850538 0.063798
0.0986648 0.0878309 0.06392
0.106447 0.0905928 0.0640726
0.116808 0.093431 0.0639658
0.129976 0.0960403 0.0636606
0.142763 0.0986038 0.0633707
0.160266 0.101183 0.062562
0.177234 0.103548 0.0618448
0.194003 0.10605 0.0608377
0.210544 0.108797 0.059205
0.226307 0.111315 0.0578622
0.242222 0.113848 0.0561379
0.258213 0.116411 0.0537728
0.273487 0.118822 0.0515908
0.289769 0.120912 0.0483253
0.306752 0.122774 0.0437324
0.323232 0.124468 0.038941
0.34049 0.125856 0.0327916
0.358999 0.127077 0.0245518
0.37734 0.128405 0.0161593
0.395666 0.129732 0.00856031
0.415167 0.131685 0.0055848
0.434669 0.133745 0.00267033
0.454078 0.135866 0
0.472435 0.138247 0
0.490105 0.140139 1.5259e-05
0.507729 0.142092 3.0518e-05
0.524498 0.143999 3.0518e-05
0.539757 0.145815 0
0.55494 0.147601 0
0.570077 0.14931 0
0.584527 0.150835 0
0.598947 0.152392 0
0.613458 0.154086 0
0.627726 0.156146 0
0.641642 0.158984 0
0.655772 0.16199 0
0.669932 0.164904 0.000610361
0.682078 0.167971 0
0.694484 0.171237 0
0.707134 0.174334 0
0.718273 0.178119 0
0.729122 0.182422 0
0.740536 0.188556 0
0.751003 0.19588 0
0.761364 0.203601 0
0.772229 0.212009 0
0.782223 0.221561 0
0.792752 0.232013 0
0.803693 0.24332 0.000686656
0.814893 0.256123 0.00207523
0.826764 0.270588 0.00205997
0.838865 0.287648 0.00164797
0.851987 0.307515 0.000640879
0.866026 0.3308 0
0.881651 0.359213 1.5259e-05
0.89987 0.396536 1.5259e-05
0.00607309 0.0762493 0.0634775
0.013489 0.0781262 0.0641489
0.0185245 0.0798199 0.0647288
0.0294194 0.0815747 0.0650797
0.0429694 0.0833753 0.0654307
0.0608835 0.0852979 0.0656596
0.0721141 0.0871595 0.0657969
0.0822766 0.0896162 0.0658579
0.0915084 0.0920729 0.0660716
0.100237 0.0950027 0.0660868
0.10837 0.0978714 0.0661784
0.11902 0.100694 0.0660563
0.132586 0.103548 0.0657359
0.145434 0.106142 0.0654612
0.163424 0.108782 0.0645914
0.18114 0.111421 0.0636301
0.197879 0.113939 0.062501
0.214588 0.116777 0.0607462
0.230991 0.119615 0.0590372
0.246921 0.122133 0.0572824
0.262913 0.124681 0.054963
0.27863 0.127245 0.0526589
0.295201 0.129396 0.0492103
0.312291 0.131289 0.044831
0.329076 0.133227 0.0395819
0.346944 0.135042 0.0318608
0.365621 0.136385 0.0230869
0.384054 0.137743 0.0145266
0.402823 0.139513 0.00726329
0.422934 0.142077 0.00596628
0.442542 0.144259 0.00344854
0.461921 0.146349 0.000579843
0.480095 0.148501 1.5259e-05
0.498054 0.150759 3.0518e-05
0.515877 0.152972 4.57771e-05
0.532586 0.154864 3.0518e-05
0.547845 0.156649 0
0.563119 0.158618 0
0.578622 0.161746 0
0.593317 0.164736 0
0.607919 0.167559 0
0.622629 0.170565 0
0.637049 0.17377 0
0.651072 0.177081 0
0.665263 0.180453 4.57771e-05
0.679194 0.183062 0.00149538
0.691325 0.186114 0
0.703807 0.189639 0
0.716808 0.195193 0
0.728298 0.201434 0
0.739498 0.207889 0
0.751095 0.214923 0
0.761639 0.222385 0
0.772091 0.230259 0
0.783123 0.238804 0
0.79353 0.248341 0
0.804547 0.258701 0
0.815671 0.270436 0.00134279
0.827085 0.283818 0.00273136
0.839231 0.299031 0.00166323
0.851759 0.316716 0
0.865293 0.337072 1.5259e-05
0.879713 0.362234 1.5259e-05
0.895705 0.39379 1.5259e-05
0.914214 0.43299 0
0.0012665 0.0829328 0.066331
0.00404364 0.0847486 0.0668345
0.00888075 0.0865034 0.0673381
0.0203861 0.0882734 0.067628
0.0387427 0.0901503 0.0678111
0.0595712 0.0921035 0.0680247
0.0727703 0.0941176 0.0681773
0.0828412 0.0965591 0.0682383
0.0928206 0.0989853 0.0682994
0.101442 0.10193 0.0683146
0.109972 0.104906 0.0683604
0.121386 0.107851 0.0681773
0.134966 0.110719 0.0678416
0.148486 0.113588 0.0674296
0.166796 0.11632 0.066331
0.184573 0.118975 0.0653697
0.202167 0.121767 0.0641031
0.219043 0.124651 0.0623331
0.235477 0.127474 0.0606241
0.252171 0.130327 0.0585336
0.268498 0.133013 0.0561837
0.284276 0.135576 0.0538643
0.301244 0.137926 0.0499733
0.31873 0.140139 0.0452735
0.33547 0.142046 0.040116
0.353384 0.143832 0.0322271
0.372396 0.145541 0.0219272
0.391104 0.147189 0.0121462
0.409888 0.148959 0.00517281
0.429953 0.151492 0.00387579
0.449882 0.15407 0.00257877
0.469535 0.156497 0.00122072
0.487755 0.159075 1.5259e-05
0.505867 0.162219 1.5259e-05
0.523949 0.165454 1.5259e-05
0.541039 0.168734 1.5259e-05
0.556634 0.171893 0
0.572076 0.174899 0
0.587579 0.178012 0
0.602304 0.181186 0
0.617029 0.184466 0
0.631846 0.187762 0
0.646265 0.190997 0
0.660304 0.194354 0
0.674357 0.198611 0
0.688533 0.20322 0
0.70106 0.208377 0
0.713802 0.213626 1.5259e-05
0.726864 0.219181 1.5259e-05
0.738369 0.225406 1.5259e-05
0.749691 0.232136 1.5259e-05
0.761379 0.239307 0
0.772229 0.246967 0
0.783093 0.255161 0
0.794507 0.264027 0
0.80502 0.27393 0
0.816114 0.284764 0.00131228
0.827359 0.296925 0.000259403
0.839078 0.310674 0
0.85153 0.326253 0
0.864378 0.344472 1.5259e-05
0.878187 0.367453 1.5259e-05
0.892882 0.394553 1.5259e-05
0.909102 0.42771 0
0.927871 0.470558 0
0.000350958 0.0894331 0.0694743
0.00125124 0.0913252 0.0698863
0.00485237 0.09308 0.070222
0.0151369 0.0948043 0.0704662
0.037644 0.096788 0.0705119
0.0586099 0.0987259 0.0706951
0.0729229 0.100908 0.0707713
0.0839399 0.10341 0.0707713
0.0938277 0.105852 0.0708324
0.103502 0.108888 0.0707103
0.11194 0.111833 0.0706645
0.124224 0.114931 0.0703136
0.138262 0.117983 0.0698253
0.152087 0.120836 0.0693523
0.17084 0.123735 0.0679942
0.188815 0.126482 0.066865
0.206348 0.129274 0.0655375
0.223697 0.132296 0.0637217
0.240375 0.135195 0.0619821
0.257053 0.138033 0.0598611
0.273716 0.140871 0.0574655
0.289906 0.143633 0.0550546
0.306905 0.145953 0.0510567
0.324376 0.14818 0.0463111
0.341588 0.150439 0.0407416
0.359869 0.152789 0.0321508
0.378988 0.155154 0.021622
0.39791 0.157595 0.0112459
0.417319 0.160525 0.00433356
0.437736 0.164019 0.00369268
0.457664 0.167193 0.00260929
0.47747 0.170428 0.00155642
0.49601 0.173678 0
0.514382 0.177142 0
0.532433 0.180362 0
0.549447 0.183627 0
0.565103 0.186908 0
0.580774 0.190326 0
0.596414 0.193759 0
0.611124 0.19704 0
0.626032 0.201587 0
0.641093 0.206317 0
0.655833 0.211261 0
0.669917 0.216068 0
0.683925 0.220493 0
0.698085 0.225193 0
0.710658 0.230411 0
0.723491 0.236027 1.5259e-05
0.736675 0.241962 3.0518e-05
0.74844 0.248508 3.0518e-05
0.760113 0.255482 3.0518e-05
0.772183 0.262959 0
0.783123 0.270924 0
0.794095 0.279454 0
0.805615 0.28864 0
0.816297 0.298772 0
0.827497 0.30988 0
0.838987 0.322347 0
0.850889 0.336522 0
0.863523 0.353292 0
0.876616 0.374182 1.5259e-05
0.890562 0.397726 1.5259e-05
0.90547 0.426703 0
0.921889 0.462913 0
0.940871 0.506813 7.62951e-05
7.62951e-05 0.0958267 0.0726635
0.00030518 0.0977951 0.0730602
0.00428778 0.0995804 0.0732891
0.0110323 0.101244 0.0733501
0.034699 0.103304 0.0733959
0.0580148 0.105257 0.0733959
0.0723278 0.10753 0.0733654
0.0842145 0.110109 0.073228
0.0948959 0.112703 0.0731365
0.104479 0.115694 0.0729686
0.113893 0.118669 0.0728161
0.12668 0.121752 0.0724346
0.140978 0.124895 0.0718853
0.155749 0.127947 0.0712596
0.174426 0.130816 0.0699168
0.192676 0.133883 0.0685435
0.210605 0.137179 0.066865
0.22797 0.140536 0.0650034
0.244984 0.143908 0.0631571
0.262211 0.147341 0.0605478
0.278935 0.150591 0.0580453
0.295262 0.153841 0.055436
0.312993 0.157015 0.0498054
0.330648 0.159838 0.0442969
0.347921 0.162615 0.0387121
0.36669 0.165591 0.029984
0.386465 0.168673 0.0198215
0.405356 0.171099 0.00946059
0.424674 0.173877 0.00254826
0.445167 0.177447 0.00280766
0.465522 0.181079 0.00306706
0.48539 0.18439 0.00225834
0.503838 0.187564 0.000244144
0.522225 0.191028 0
0.540581 0.194705 0
0.557931 0.199329 0
0.57377 0.203754 0
0.589639 0.208347 0
0.605539 0.213123 0
0.620523 0.217823 0
0.635538 0.222599 0
0.650599 0.227359 0
0.665156 0.23212 0
0.679057 0.236728 0
0.693172 0.241566 0
0.707469 0.246708 0
0.720333 0.252171 0
0.733486 0.258061 1.5259e-05
0.746975 0.264317 3.0518e-05
0.758816 0.271107 3.0518e-05
0.770596 0.278309 1.5259e-05
0.782742 0.285832 0
0.793698 0.293782 0
0.804898 0.302693 0
0.816678 0.312322 0
0.827344 0.32282 0
0.838666 0.334203 0
0.850278 0.347066 0
0.862333 0.363424 0
0.875074 0.381598 0
0.888289 0.402594 0
0.902419 0.428611 0
0.91754 0.459861 0
0.934096 0.496742 4.57771e-05
0.953414 0.542412 0.000213626
0 0.103822 0.0756542
0 0.105943 0.0760815
0.00196841 0.107912 0.0760815
0.00779736 0.109606 0.0760357
0.0295872 0.111849 0.0756542
0.0527199 0.113832 0.0756237
0.072343 0.116487 0.0754559
0.084123 0.119097 0.0753033
0.0953231 0.121981 0.0751202
0.104982 0.125139 0.0748913
0.114305 0.128161 0.0747082
0.129213 0.131441 0.0741131
0.143404 0.134798 0.0735332
0.158831 0.138216 0.072755
0.178302 0.14168 0.0712902
0.19646 0.144823 0.0699168
0.214725 0.148257 0.0679332
0.232761 0.151843 0.0656443
0.249699 0.1552 0.063798
0.267063 0.158679 0.0609598
0.284413 0.162219 0.057847
0.300755 0.165454 0.0552377
0.318532 0.168597 0.049424
0.336599 0.17174 0.0427253
0.354223 0.174762 0.0366064
0.373083 0.177707 0.0277256
0.392798 0.180774 0.0175784
0.412238 0.18381 0.00885023
0.431846 0.186938 0.00134279
0.452445 0.191272 0.00128176
0.472923 0.195743 0.00149538
0.493294 0.20032 0.00170901
0.512276 0.204959 0.000946059
0.530785 0.209323 0
0.54931 0.213916 0
0.566629 0.218616 0
0.582681 0.223438 0
0.598703 0.228275 0
0.614603 0.233051 0
0.629557 0.237751 0
0.644602 0.242634 0
0.659693 0.247562 0.00047303
0.67425 0.252369 0
0.688365 0.257176 0
0.702724 0.262211 0
0.717159 0.267536 0
0.730159 0.273243 1.5259e-05
0.743435 0.279286 0
0.75697 0.285542 1.5259e-05
0.76878 0.292302 0
0.780713 0.299763 0
0.793149 0.307927 0
0.804334 0.316503 0
0.815625 0.325658 0
0.827375 0.335439 0
0.838071 0.346105 0
0.849454 0.359091 0
0.861128 0.373678 0
0.873289 0.390097 0
0.886168 0.408652 0
0.89955 0.43267 0
0.913817 0.459968 0
0.929046 0.491753 3.0518e-05
0.945861 0.53019 0.000167849
0.964904 0.574975 0.000167849
0 0.113222 0.0783703
0 0.115389 0.0788281
0 0.117449 0.0786755
0.00610361 0.11928 0.0784924
0.0245212 0.121523 0.077821
0.0457771 0.123491 0.0776379
0.0665446 0.126329 0.0774395
0.0845197 0.129168 0.0772564
0.0953994 0.132113 0.0770581
0.105272 0.135424 0.0767224
0.114641 0.138491 0.0764935
0.130434 0.141787 0.0758221
0.145922 0.145037 0.0750134
0.161761 0.148425 0.0741588
0.181353 0.151949 0.072694
0.200336 0.155413 0.0710765
0.21854 0.158862 0.0690318
0.236683 0.162478 0.0666361
0.254337 0.166094 0.0642557
0.271702 0.169558 0.0613565
0.288991 0.173175 0.0581826
0.30605 0.177218 0.0545357
0.324285 0.181064 0.0466163
0.342397 0.184771 0.0389563
0.360296 0.18854 0.0313573
0.380148 0.192859 0.0265965
0.399939 0.196628 0.0174716
0.419455 0.200366 0.00784314
0.43949 0.20444 0.00140383
0.460456 0.20911 0.000839246
0.480995 0.213642 0.00103761
0.50132 0.218204 0.00123598
0.520256 0.222858 0.000549325
0.539147 0.227649 0
0.55787 0.232517 0
0.575082 0.237201 0
0.591119 0.242023 0
0.607279 0.247028 0
0.62359 0.252308 0
0.638773 0.257252 0
0.653849 0.262104 0
0.668818 0.26685 0
0.683421 0.271702 0
0.697673 0.276738 1.5259e-05
0.712139 0.281987 3.0518e-05
0.726558 0.287373 3.0518e-05
0.73959 0.293141 3.0518e-05
0.753002 0.299443 1.5259e-05
0.766827 0.30634 0
0.778866 0.313726 0
0.790936 0.321508 0
0.803449 0.329793 0
0.814664 0.338506 0
0.825971 0.347799 0
0.837583 0.358892 0
0.848325 0.371038 0
0.859785 0.384222 0
0.871565 0.399084 0
0.883864 0.416892 0
0.89688 0.438209 0
0.910353 0.462348 0
0.924712 0.490272 4.57771e-05
0.9402 0.523415 0.00015259
0.95697 0.561715 0.000198367
0.975448 0.605188 4.57771e-05
0 0.123064 0.0810254
0 0.125277 0.0814984
0 0.127459 0.0812085
0.00393683 0.12958 0.080766
0.0218357 0.131838 0.0800946
0.0396429 0.134081 0.079469
0.0604105 0.136965 0.0792096
0.080293 0.139895 0.0790112
0.0952621 0.143252 0.0786908
0.105074 0.146593 0.0783551
0.115511 0.14995 0.0778973
0.131838 0.153414 0.0771191
0.14728 0.156725 0.0763104
0.164828 0.160128 0.0748913
0.184298 0.163912 0.0733043
0.203342 0.167727 0.0716106
0.222782 0.172015 0.0687266
0.240879 0.175982 0.0661479
0.258579 0.17998 0.0635843
0.276936 0.18436 0.058793
0.294408 0.188418 0.0550393
0.311437 0.192432 0.0515602
0.33019 0.196612 0.0404974
0.34876 0.200687 0.0307469
0.366552 0.204425 0.0249485
0.386297 0.208469 0.0180667
0.406851 0.213031 0.0146334
0.426825 0.217258 0.00849927
0.446876 0.221332 0.00239567
0.467781 0.225895 0.00114443
0.488609 0.230747 0.00134279
0.509209 0.235615 0.00149538
0.528191 0.240345 0.000808728
0.547234 0.245304 0.000122072
0.566247 0.250477 0
0.58381 0.255634 0
0.600107 0.260685 0
0.616373 0.265797 0
0.63267 0.271077 0
0.6477 0.275914 0
0.662669 0.280705 0
0.677714 0.285588 0
0.692302 0.290471 0
0.706584 0.295521 1.5259e-05
0.721218 0.301137 1.5259e-05
0.735897 0.307134 3.0518e-05
0.749203 0.313481 3.0518e-05
0.762753 0.320058 1.5259e-05
0.776623 0.327031 0
0.788647 0.334508 0
0.800793 0.342443 0
0.813397 0.351049 0
0.824567 0.360952 0
0.835691 0.37142 0
0.847349 0.382712 0
