skills/skills-3/darktable-colorist/assets/luts/CineStill-800-T-V2.0-N125.cube
#Generated with IWLTBAP LUT Generator
#Website: http://luts.iwltbap.com
TITLE "CineStill-800-T-V2.0-N125"
#LUT size
LUT_3D_SIZE 9
#LUT data points
0.000000 0.007843 0.000000
0.066667 0.000000 0.000000
0.149020 0.015686 0.000000
0.223529 0.035294 0.000000
0.290196 0.058824 0.000000
0.360784 0.101961 0.000000
0.447059 0.168627 0.043137
0.541176 0.235294 0.094118
0.639216 0.305882 0.149020
0.015686 0.070588 0.000000
0.086275 0.070588 0.000000
0.160784 0.074510 0.000000
0.239216 0.070588 0.000000
0.309804 0.082353 0.000000
0.376471 0.125490 0.000000
0.462745 0.188235 0.050980
0.556863 0.250980 0.101961
0.650980 0.321569 0.156863
0.086275 0.137255 0.086275
0.113725 0.141176 0.070588
0.168627 0.145098 0.035294
0.247059 0.145098 0.000000
0.337255 0.149020 0.000000
0.419608 0.184314 0.023529
0.501961 0.235294 0.074510
0.588235 0.294118 0.125490
0.678431 0.356863 0.180392
0.145098 0.219608 0.172549
0.164706 0.223529 0.172549
0.207843 0.231373 0.160784
0.274510 0.247059 0.121569
0.368627 0.258824 0.082353
0.466667 0.278431 0.074510
0.552941 0.313725 0.109804
0.639216 0.360784 0.160784
0.725490 0.419608 0.215686
0.243137 0.337255 0.270588
0.258824 0.341176 0.274510
0.286275 0.349020 0.282353
0.337255 0.360784 0.270588
0.411765 0.376471 0.231373
0.505882 0.396078 0.192157
0.603922 0.419608 0.188235
0.698039 0.458824 0.219608
0.792157 0.509804 0.270588
0.356863 0.466667 0.360784
0.364706 0.470588 0.368627
0.388235 0.474510 0.380392
0.427451 0.486275 0.388235
0.486275 0.505882 0.380392
0.564706 0.529412 0.349020
0.662745 0.552941 0.321569
0.760784 0.584314 0.321569
0.854902 0.615686 0.345098
0.482353 0.615686 0.462745
0.490196 0.615686 0.466667
0.509804 0.623529 0.478431
0.541176 0.631373 0.490196
0.588235 0.643137 0.501961
0.647059 0.662745 0.494118
0.725490 0.682353 0.470588
0.811765 0.705882 0.447059
0.898039 0.725490 0.439216
0.592157 0.749020 0.552941
0.600000 0.752941 0.552941
0.615686 0.752941 0.560784
0.643137 0.760784 0.576471
0.682353 0.772549 0.588235
0.729412 0.784314 0.592157
0.792157 0.800000 0.588235
0.866667 0.823529 0.572549
0.956863 0.850980 0.564706
0.698039 0.874510 0.631373
0.705882 0.878431 0.635294
0.721569 0.882353 0.643137
0.745098 0.890196 0.654902
0.784314 0.901961 0.670588
0.835294 0.921569 0.690196
0.898039 0.945098 0.709804
0.956863 0.960784 0.701961
1.000000 0.968627 0.682353
0.000000 0.007843 0.000000
0.054902 0.000000 0.000000
0.129412 0.023529 0.000000
0.192157 0.066667 0.000000
0.274510 0.090196 0.027451
0.360784 0.129412 0.062745
0.458824 0.184314 0.101961
0.552941 0.247059 0.141176
0.647059 0.313725 0.184314
0.000000 0.070588 0.000000
0.062745 0.074510 0.000000
0.137255 0.082353 0.000000
0.211765 0.098039 0.019608
0.294118 0.113725 0.047059
0.384314 0.149020 0.070588
0.474510 0.203922 0.105882
0.564706 0.262745 0.149020
0.654902 0.325490 0.192157
0.086275 0.145098 0.074510
0.109804 0.149020 0.074510
0.164706 0.152941 0.070588
0.243137 0.160784 0.066667
0.337255 0.168627 0.066667
0.431373 0.196078 0.090196
0.513725 0.243137 0.121569
0.596078 0.301961 0.164706
0.682353 0.360784 0.211765
0.156863 0.231373 0.176471
0.176471 0.235294 0.180392
0.215686 0.243137 0.172549
0.282353 0.258824 0.149020
0.376471 0.270588 0.125490
0.482353 0.286275 0.121569
0.568627 0.313725 0.145098
0.647059 0.360784 0.188235
0.729412 0.419608 0.239216
0.250980 0.345098 0.290196
0.262745 0.349020 0.298039
0.294118 0.356863 0.301961
0.341176 0.368627 0.290196
0.415686 0.384314 0.254902
0.513725 0.400000 0.215686
0.615686 0.423529 0.207843
0.705882 0.454902 0.235294
0.792157 0.505882 0.282353
0.356863 0.474510 0.384314
0.368627 0.474510 0.388235
0.388235 0.482353 0.400000
0.427451 0.490196 0.411765
0.482353 0.505882 0.400000
0.564706 0.529412 0.364706
0.658824 0.549020 0.333333
0.760784 0.576471 0.325490
0.850980 0.607843 0.345098
0.474510 0.611765 0.474510
0.482353 0.611765 0.478431
0.501961 0.615686 0.490196
0.533333 0.627451 0.505882
0.576471 0.639216 0.517647
0.639216 0.654902 0.505882
0.713725 0.674510 0.478431
0.803922 0.694118 0.447059
0.894118 0.717647 0.439216
0.580392 0.737255 0.552941
0.588235 0.741176 0.556863
0.603922 0.745098 0.568627
0.631373 0.752941 0.580392
0.670588 0.760784 0.592157
0.717647 0.772549 0.600000
0.780392 0.792157 0.596078
0.854902 0.811765 0.576471
0.945098 0.839216 0.560784
0.682353 0.858824 0.627451
0.686275 0.862745 0.631373
0.701961 0.866667 0.639216
0.729412 0.874510 0.654902
0.768627 0.886275 0.670588
0.815686 0.905882 0.690196
0.878431 0.929412 0.705882
0.937255 0.945098 0.701961
1.000000 0.956863 0.682353
0.019608 0.000000 0.000000
0.062745 0.000000 0.000000
0.125490 0.039216 0.007843
0.188235 0.078431 0.039216
0.254902 0.117647 0.078431
0.341176 0.156863 0.113725
0.443137 0.207843 0.156863
0.545098 0.262745 0.196078
0.643137 0.321569 0.239216
0.023529 0.074510 0.031373
0.074510 0.078431 0.039216
0.133333 0.090196 0.054902
0.200000 0.113725 0.070588
0.270588 0.141176 0.090196
0.356863 0.180392 0.125490
0.458824 0.223529 0.164706
0.556863 0.274510 0.203922
0.650980 0.333333 0.243137
0.078431 0.152941 0.086275
0.101961 0.156863 0.090196
0.152941 0.164706 0.101961
0.227451 0.176471 0.113725
0.309804 0.196078 0.129412
0.407843 0.223529 0.156863
0.501961 0.262745 0.188235
0.592157 0.309804 0.219608
0.682353 0.364706 0.258824
0.156863 0.239216 0.168627
0.176471 0.243137 0.172549
0.215686 0.254902 0.176471
0.278431 0.266667 0.180392
0.364706 0.282353 0.184314
0.470588 0.298039 0.192157
0.568627 0.321569 0.211765
0.647059 0.364706 0.243137
0.729412 0.419608 0.286275
0.254902 0.352941 0.294118
0.270588 0.356863 0.298039
0.298039 0.364706 0.301961
0.345098 0.376471 0.298039
0.419608 0.392157 0.278431
0.513725 0.403922 0.258824
0.623529 0.419608 0.250980
0.717647 0.450980 0.274510
0.800000 0.498039 0.317647
0.356863 0.474510 0.407843
0.368627 0.478431 0.415686
0.388235 0.482353 0.427451
0.427451 0.494118 0.435294
0.482353 0.509804 0.427451
0.560784 0.529412 0.392157
0.662745 0.549020 0.356863
0.768627 0.568627 0.345098
0.858824 0.600000 0.368627
0.470588 0.607843 0.501961
0.478431 0.611765 0.509804
0.498039 0.615686 0.521569
0.529412 0.623529 0.541176
0.572549 0.639216 0.552941
0.631373 0.654902 0.541176
0.709804 0.674510 0.505882
0.803922 0.690196 0.466667
0.898039 0.709804 0.450980
0.576471 0.733333 0.580392
0.584314 0.737255 0.584314
0.600000 0.741176 0.592157
0.627451 0.749020 0.607843
0.662745 0.756863 0.627451
0.709804 0.772549 0.635294
0.772549 0.788235 0.627451
0.850980 0.811765 0.600000
0.941176 0.835294 0.580392
0.674510 0.854902 0.650980
0.682353 0.858824 0.654902
0.698039 0.862745 0.662745
0.721569 0.870588 0.678431
0.760784 0.882353 0.698039
0.807843 0.901961 0.717647
0.870588 0.925490 0.733333
0.929412 0.941176 0.725490
0.996078 0.952941 0.701961
0.043137 0.003922 0.003922
0.074510 0.027451 0.023529
0.121569 0.066667 0.062745
0.188235 0.090196 0.094118
0.258824 0.125490 0.117647
0.337255 0.172549 0.152941
0.427451 0.227451 0.200000
0.529412 0.278431 0.247059
0.627451 0.333333 0.290196
0.078431 0.078431 0.078431
0.098039 0.086275 0.082353
0.141176 0.101961 0.094118
0.203922 0.121569 0.109804
0.274510 0.152941 0.125490
0.349020 0.196078 0.160784
0.439216 0.243137 0.207843
0.537255 0.294118 0.250980
0.639216 0.349020 0.298039
0.094118 0.156863 0.121569
0.113725 0.160784 0.125490
0.160784 0.168627 0.137255
0.227451 0.184314 0.149020
0.301961 0.207843 0.164706
0.380392 0.247059 0.192157
0.470588 0.286275 0.231373
0.568627 0.329412 0.274510
0.666667 0.380392 0.313725
0.152941 0.247059 0.180392
0.168627 0.254902 0.184314
0.203922 0.262745 0.192157
0.266667 0.278431 0.211765
0.349020 0.294118 0.227451
0.435294 0.317647 0.250980
0.529412 0.349020 0.278431
0.623529 0.384314 0.305882
0.717647 0.431373 0.341176
0.258824 0.360784 0.286275
0.270588 0.364706 0.290196
0.298039 0.372549 0.294118
0.341176 0.384314 0.298039
0.411765 0.400000 0.305882
0.498039 0.415686 0.313725
0.603922 0.431373 0.325490
0.709804 0.458824 0.345098
0.796078 0.501961 0.380392
0.360784 0.482353 0.415686
0.368627 0.482353 0.419608
0.392157 0.490196 0.427451
0.431373 0.498039 0.431373
0.486275 0.513725 0.427451
0.560784 0.533333 0.415686
0.662745 0.552941 0.403922
0.776471 0.568627 0.396078
0.874510 0.596078 0.415686
0.470588 0.611765 0.529412
0.478431 0.615686 0.537255
0.498039 0.619608 0.549020
0.525490 0.627451 0.568627
0.568627 0.639216 0.580392
0.627451 0.658824 0.568627
0.709804 0.674510 0.537255
0.807843 0.690196 0.498039
0.909804 0.705882 0.478431
0.572549 0.737255 0.615686
0.580392 0.737255 0.619608
0.596078 0.741176 0.631373
0.623529 0.749020 0.650980
0.658824 0.756863 0.670588
0.701961 0.772549 0.686275
0.764706 0.792157 0.674510
0.847059 0.811765 0.639216
0.945098 0.835294 0.607843
0.670588 0.854902 0.686275
0.678431 0.858824 0.690196
0.694118 0.862745 0.701961
0.721569 0.870588 0.717647
0.756863 0.882353 0.741176
0.803922 0.901961 0.764706
0.862745 0.925490 0.784314
0.921569 0.941176 0.772549
0.992157 0.952941 0.741176
0.078431 0.050980 0.066667
0.090196 0.066667 0.070588
0.121569 0.090196 0.090196
0.176471 0.117647 0.117647
0.254902 0.145098 0.156863
0.337255 0.184314 0.196078
0.427451 0.239216 0.239216
0.521569 0.294118 0.286275
0.615686 0.349020 0.333333
0.101961 0.094118 0.101961
0.117647 0.101961 0.105882
0.149020 0.117647 0.117647
0.200000 0.137255 0.137255
0.270588 0.164706 0.172549
0.356863 0.207843 0.207843
0.439216 0.254902 0.247059
0.529412 0.309804 0.294118
0.623529 0.364706 0.341176
0.133333 0.160784 0.156863
0.149020 0.164706 0.160784
0.184314 0.172549 0.168627
0.235294 0.192157 0.180392
0.305882 0.219608 0.203922
0.388235 0.254902 0.231373
0.466667 0.298039 0.266667
0.552941 0.345098 0.313725
0.647059 0.396078 0.360784
0.168627 0.254902 0.215686
0.184314 0.262745 0.219608
0.215686 0.270588 0.231373
0.274510 0.286275 0.247059
0.349020 0.305882 0.262745
0.427451 0.333333 0.282353
0.509804 0.368627 0.309804
0.596078 0.407843 0.349020
0.690196 0.450980 0.392157
0.258824 0.368627 0.298039
0.266667 0.372549 0.301961
0.290196 0.380392 0.305882
0.333333 0.396078 0.317647
0.396078 0.411765 0.337255
0.482353 0.427451 0.356863
0.572549 0.450980 0.380392
0.666667 0.482353 0.407843
0.764706 0.521569 0.443137
0.364706 0.490196 0.411765
0.372549 0.490196 0.415686
0.392157 0.498039 0.415686
0.427451 0.505882 0.423529
0.482353 0.521569 0.431373
0.552941 0.541176 0.447059
0.647059 0.560784 0.458824
0.752941 0.580392 0.470588
0.858824 0.603922 0.490196
0.474510 0.615686 0.541176
0.482353 0.619608 0.545098
0.501961 0.623529 0.552941
0.529412 0.631373 0.564706
0.576471 0.647059 0.572549
0.631373 0.662745 0.572549
0.709804 0.678431 0.560784
0.807843 0.694118 0.545098
0.917647 0.705882 0.533333
0.576471 0.737255 0.643137
0.580392 0.741176 0.650980
0.596078 0.745098 0.658824
0.623529 0.752941 0.678431
0.658824 0.760784 0.698039
0.701961 0.776471 0.713725
0.764706 0.792157 0.701961
0.847059 0.815686 0.670588
0.952941 0.835294 0.639216
0.670588 0.858824 0.725490
0.678431 0.858824 0.729412
0.694118 0.866667 0.741176
0.717647 0.874510 0.760784
0.752941 0.886275 0.784314
0.800000 0.905882 0.819608
0.854902 0.925490 0.839216
0.913725 0.941176 0.823529
0.988235 0.952941 0.780392
0.105882 0.082353 0.117647
0.117647 0.090196 0.121569
0.141176 0.109804 0.129412
0.184314 0.137255 0.149020
0.247059 0.168627 0.184314
0.329412 0.211765 0.231373
0.423529 0.254902 0.282353
0.517647 0.309804 0.329412
0.611765 0.364706 0.376471
0.121569 0.113725 0.133333
0.133333 0.117647 0.133333
0.156863 0.137255 0.141176
0.196078 0.160784 0.160784
0.258824 0.192157 0.196078
0.345098 0.227451 0.247059
0.439216 0.274510 0.290196
0.529412 0.321569 0.337255
0.619608 0.376471 0.384314
0.160784 0.168627 0.184314
0.172549 0.172549 0.188235
0.200000 0.188235 0.192157
0.243137 0.207843 0.207843
0.305882 0.239216 0.239216
0.384314 0.270588 0.274510
0.470588 0.309804 0.313725
0.552941 0.356863 0.356863
0.643137 0.411765 0.400000
0.207843 0.262745 0.258824
0.219608 0.266667 0.262745
0.250980 0.278431 0.270588
0.298039 0.294118 0.282353
0.360784 0.313725 0.301961
0.435294 0.341176 0.325490
0.513725 0.376471 0.349020
0.596078 0.419608 0.384314
0.682353 0.466667 0.431373
0.270588 0.376471 0.333333
0.282353 0.380392 0.337255
0.301961 0.388235 0.345098
0.341176 0.403922 0.356863
0.403922 0.419608 0.376471
0.482353 0.439216 0.396078
0.564706 0.466667 0.415686
0.647059 0.501961 0.443137
0.737255 0.545098 0.482353
0.364706 0.498039 0.427451
0.372549 0.501961 0.427451
0.392157 0.505882 0.431373
0.423529 0.517647 0.439216
0.470588 0.537255 0.454902
0.541176 0.552941 0.478431
0.631373 0.576471 0.501961
0.721569 0.600000 0.525490
0.815686 0.627451 0.549020
0.478431 0.627451 0.545098
0.486275 0.627451 0.549020
0.501961 0.631373 0.552941
0.533333 0.643137 0.556863
0.572549 0.654902 0.564706
0.627451 0.670588 0.576471
0.701961 0.690196 0.588235
0.788235 0.705882 0.600000
0.894118 0.721569 0.607843
0.580392 0.745098 0.658824
0.584314 0.745098 0.662745
0.600000 0.749020 0.670588
0.627451 0.756863 0.682353
0.662745 0.768627 0.694118
0.709804 0.780392 0.705882
0.768627 0.800000 0.705882
0.847059 0.819608 0.698039
0.952941 0.843137 0.690196
0.674510 0.862745 0.756863
0.682353 0.862745 0.760784
0.698039 0.870588 0.772549
0.721569 0.878431 0.788235
0.756863 0.890196 0.815686
0.803922 0.909804 0.847059
0.854902 0.929412 0.866667
0.913725 0.945098 0.850980
0.988235 0.956863 0.811765
0.137255 0.101961 0.168627
0.149020 0.109804 0.172549
0.168627 0.125490 0.180392
0.203922 0.152941 0.196078
0.258824 0.188235 0.223529
0.333333 0.231373 0.270588
0.419608 0.278431 0.317647
0.513725 0.329412 0.368627
0.607843 0.380392 0.419608
0.149020 0.129412 0.176471
0.160784 0.137255 0.180392
0.180392 0.152941 0.188235
0.215686 0.176471 0.203922
0.270588 0.211765 0.231373
0.341176 0.254902 0.278431
0.431373 0.298039 0.329412
0.521569 0.341176 0.380392
0.615686 0.396078 0.427451
0.184314 0.184314 0.211765
0.192157 0.192157 0.215686
0.215686 0.203922 0.219608
0.250980 0.227451 0.235294
0.301961 0.262745 0.262745
0.372549 0.298039 0.301961
0.458824 0.333333 0.352941
0.549020 0.376471 0.400000
0.643137 0.427451 0.447059
0.243137 0.274510 0.294118
0.254902 0.278431 0.298039
0.278431 0.286275 0.301961
0.313725 0.305882 0.313725
0.364706 0.329412 0.329412
0.431373 0.360784 0.356863
0.509804 0.392157 0.396078
0.596078 0.431373 0.435294
0.682353 0.478431 0.478431
0.305882 0.384314 0.376471
0.313725 0.388235 0.380392
0.337255 0.396078 0.388235
0.372549 0.407843 0.400000
0.427451 0.427451 0.411765
0.494118 0.447059 0.431373
0.572549 0.478431 0.454902
0.658824 0.513725 0.486275
0.741176 0.556863 0.521569
0.380392 0.505882 0.462745
0.388235 0.509804 0.462745
0.403922 0.517647 0.470588
0.435294 0.529412 0.478431
0.482353 0.545098 0.494118
0.549020 0.564706 0.517647
0.631373 0.588235 0.541176
0.717647 0.615686 0.560784
0.796078 0.647059 0.584314
0.486275 0.635294 0.564706
0.490196 0.639216 0.564706
0.505882 0.643137 0.568627
0.533333 0.654902 0.572549
0.568627 0.666667 0.584314
0.619608 0.686275 0.600000
0.690196 0.701961 0.623529
0.772549 0.721569 0.643137
0.862745 0.741176 0.662745
0.584314 0.752941 0.670588
0.592157 0.756863 0.674510
0.603922 0.760784 0.678431
0.631373 0.768627 0.682353
0.662745 0.776471 0.690196
0.709804 0.792157 0.698039
0.768627 0.811765 0.713725
0.843137 0.831373 0.729412
0.937255 0.854902 0.745098
0.682353 0.870588 0.776471
0.686275 0.870588 0.780392
0.701961 0.878431 0.788235
0.729412 0.886275 0.803922
0.764706 0.901961 0.823529
0.811765 0.921569 0.843137
0.862745 0.937255 0.854902
0.917647 0.949020 0.850980
0.988235 0.960784 0.835294
0.168627 0.121569 0.223529
0.176471 0.125490 0.227451
0.196078 0.141176 0.235294
0.231373 0.164706 0.250980
0.282353 0.203922 0.278431
0.345098 0.247059 0.313725
0.423529 0.298039 0.360784
0.509804 0.349020 0.411765
0.603922 0.400000 0.462745
0.176471 0.145098 0.231373
0.188235 0.152941 0.235294
0.207843 0.164706 0.243137
0.243137 0.188235 0.258824
0.290196 0.227451 0.286275
0.356863 0.266667 0.321569
0.431373 0.313725 0.368627
0.521569 0.364706 0.419608
0.615686 0.415686 0.470588
0.207843 0.200000 0.254902
0.215686 0.207843 0.258824
0.239216 0.219608 0.266667
0.270588 0.243137 0.282353
0.317647 0.274510 0.305882
0.376471 0.313725 0.341176
0.450980 0.352941 0.384314
0.541176 0.400000 0.435294
0.639216 0.447059 0.490196
0.270588 0.286275 0.321569
0.278431 0.290196 0.325490
0.298039 0.301961 0.329412
0.329412 0.321569 0.337255
0.368627 0.349020 0.352941
0.423529 0.380392 0.380392
0.494118 0.415686 0.423529
0.584314 0.454902 0.474510
0.682353 0.501961 0.525490
0.337255 0.392157 0.415686
0.349020 0.396078 0.415686
0.368627 0.403922 0.423529
0.400000 0.415686 0.431373
0.447059 0.435294 0.443137
0.501961 0.462745 0.462745
0.568627 0.494118 0.494118
0.654902 0.533333 0.533333
0.745098 0.572549 0.576471
0.411765 0.517647 0.505882
0.419608 0.517647 0.509804
0.435294 0.525490 0.513725
0.466667 0.537255 0.525490
0.513725 0.552941 0.541176
0.572549 0.576471 0.560784
0.647059 0.600000 0.580392
0.725490 0.627451 0.603922
0.807843 0.658824 0.627451
0.501961 0.647059 0.603922
0.509804 0.650980 0.603922
0.521569 0.654902 0.607843
0.549020 0.666667 0.615686
0.584314 0.678431 0.627451
0.631373 0.698039 0.643137
0.698039 0.713725 0.662745
0.776471 0.733333 0.682353
0.858824 0.756863 0.701961
0.596078 0.764706 0.698039
0.600000 0.768627 0.698039
0.615686 0.772549 0.701961
0.635294 0.780392 0.705882
0.666667 0.792157 0.709804
0.709804 0.807843 0.721569
0.760784 0.827451 0.741176
0.835294 0.847059 0.764706
0.929412 0.878431 0.796078
0.694118 0.886275 0.800000
0.701961 0.886275 0.803922
0.717647 0.894118 0.811765
0.741176 0.905882 0.819608
0.776471 0.921569 0.831373
0.819608 0.937255 0.847059
0.866667 0.952941 0.854902
0.917647 0.964706 0.862745
0.984314 0.972549 0.870588
0.196078 0.137255 0.274510
0.203922 0.141176 0.278431
0.219608 0.152941 0.286275
0.254902 0.180392 0.301961
0.305882 0.215686 0.329412
0.364706 0.258824 0.364706
0.435294 0.309804 0.403922
0.517647 0.364706 0.454902
0.611765 0.419608 0.509804
0.203922 0.156863 0.282353
0.211765 0.164706 0.286275
0.231373 0.176471 0.294118
0.266667 0.203922 0.313725
0.313725 0.235294 0.337255
0.372549 0.278431 0.372549
0.443137 0.325490 0.411765
0.525490 0.376471 0.458824
0.619608 0.435294 0.517647
0.235294 0.215686 0.305882
0.243137 0.219608 0.309804
0.262745 0.235294 0.321569
0.294118 0.254902 0.337255
0.337255 0.286275 0.356863
0.396078 0.321569 0.388235
0.462745 0.368627 0.427451
0.545098 0.415686 0.478431
0.639216 0.470588 0.537255
0.290196 0.298039 0.360784
0.298039 0.301961 0.364706
0.317647 0.313725 0.368627
0.345098 0.333333 0.380392
0.384314 0.360784 0.396078
0.435294 0.396078 0.419608
0.498039 0.435294 0.458824
0.584314 0.478431 0.509804
0.682353 0.529412 0.572549
0.364706 0.400000 0.447059
0.372549 0.403922 0.447059
0.388235 0.411765 0.450980
0.419608 0.427451 0.458824
0.458824 0.450980 0.470588
0.505882 0.482353 0.486275
0.564706 0.521569 0.517647
0.647059 0.564706 0.568627
0.737255 0.603922 0.623529
0.447059 0.525490 0.549020
0.454902 0.529412 0.552941
0.470588 0.537255 0.556863
0.501961 0.549020 0.568627
0.545098 0.568627 0.580392
0.600000 0.592157 0.600000
0.658824 0.623529 0.619608
0.733333 0.654902 0.650980
0.811765 0.686275 0.686275
0.537255 0.662745 0.654902
0.541176 0.666667 0.654902
0.556863 0.670588 0.658824
0.584314 0.682353 0.666667
0.619608 0.694118 0.682353
0.666667 0.713725 0.694118
0.729412 0.729412 0.713725
0.796078 0.752941 0.729412
0.878431 0.776471 0.752941
0.623529 0.788235 0.741176
0.627451 0.788235 0.745098
0.639216 0.792157 0.745098
0.658824 0.800000 0.749020
0.690196 0.811765 0.760784
0.729412 0.827451 0.772549
0.780392 0.850980 0.792157
0.850980 0.870588 0.819608
0.949020 0.905882 0.854902
0.725490 0.913725 0.847059
0.729412 0.917647 0.847059
0.745098 0.925490 0.850980
0.768627 0.937255 0.862745
0.803922 0.952941 0.874510
0.839216 0.968627 0.882353
0.874510 0.976471 0.886275
0.917647 0.988235 0.898039
0.980392 0.996078 0.909804
