skills/skills-3/darktable-colorist/assets/luts/CineStill-800-T-V2.0-N125.cube
#Generated with IWLTBAP LUT Generator
#Website: http://luts.iwltbap.com
TITLE "CineStill-800-T-V2.0-N125"
#LUT size
LUT_3D_SIZE 25
#LUT data points
0.000000 0.007843 0.000000
0.007843 0.003922 0.000000
0.031373 0.000000 0.000000
0.066667 0.000000 0.000000
0.101961 0.000000 0.000000
0.129412 0.000000 0.000000
0.149020 0.015686 0.000000
0.172549 0.027451 0.000000
0.200000 0.031373 0.000000
0.223529 0.035294 0.000000
0.247059 0.039216 0.000000
0.270588 0.047059 0.000000
0.290196 0.058824 0.000000
0.313725 0.070588 0.000000
0.337255 0.086275 0.000000
0.360784 0.101961 0.000000
0.388235 0.125490 0.000000
0.419608 0.145098 0.023529
0.447059 0.168627 0.043137
0.478431 0.188235 0.058824
0.509804 0.211765 0.074510
0.541176 0.235294 0.094118
0.572549 0.258824 0.113725
0.607843 0.282353 0.129412
0.639216 0.305882 0.149020
0.000000 0.011765 0.000000
0.000000 0.007843 0.000000
0.023529 0.000000 0.000000
0.058824 0.000000 0.000000
0.098039 0.000000 0.000000
0.125490 0.011765 0.000000
0.152941 0.027451 0.000000
0.176471 0.035294 0.000000
0.203922 0.039216 0.000000
0.231373 0.043137 0.000000
0.254902 0.050980 0.000000
0.278431 0.058824 0.000000
0.301961 0.066667 0.000000
0.321569 0.082353 0.000000
0.345098 0.098039 0.000000
0.372549 0.113725 0.000000
0.400000 0.137255 0.011765
0.427451 0.156863 0.031373
0.458824 0.176471 0.047059
0.486275 0.200000 0.066667
0.517647 0.219608 0.082353
0.549020 0.243137 0.101961
0.580392 0.266667 0.117647
0.611765 0.286275 0.137255
0.647059 0.309804 0.152941
0.000000 0.019608 0.000000
0.000000 0.023529 0.000000
0.027451 0.023529 0.000000
0.070588 0.027451 0.000000
0.101961 0.035294 0.000000
0.129412 0.043137 0.000000
0.156863 0.050980 0.000000
0.184314 0.054902 0.000000
0.211765 0.054902 0.000000
0.239216 0.054902 0.000000
0.262745 0.058824 0.000000
0.286275 0.066667 0.000000
0.305882 0.078431 0.000000
0.329412 0.090196 0.000000
0.352941 0.105882 0.000000
0.376471 0.121569 0.000000
0.403922 0.141176 0.015686
0.435294 0.164706 0.035294
0.462745 0.184314 0.050980
0.494118 0.203922 0.066667
0.521569 0.227451 0.086275
0.552941 0.250980 0.101961
0.584314 0.270588 0.121569
0.619608 0.294118 0.137255
0.650980 0.317647 0.156863
0.015686 0.070588 0.000000
0.035294 0.070588 0.000000
0.058824 0.070588 0.000000
0.086275 0.070588 0.000000
0.109804 0.074510 0.000000
0.133333 0.074510 0.000000
0.160784 0.074510 0.000000
0.188235 0.070588 0.000000
0.215686 0.070588 0.000000
0.239216 0.070588 0.000000
0.262745 0.070588 0.000000
0.286275 0.074510 0.000000
0.309804 0.082353 0.000000
0.329412 0.094118 0.000000
0.352941 0.109804 0.000000
0.376471 0.125490 0.000000
0.407843 0.149020 0.015686
0.435294 0.168627 0.035294
0.462745 0.188235 0.050980
0.494118 0.207843 0.066667
0.525490 0.231373 0.086275
0.556863 0.250980 0.101961
0.588235 0.274510 0.121569
0.619608 0.298039 0.141176
0.650980 0.321569 0.156863
0.043137 0.090196 0.000000
0.058824 0.094118 0.000000
0.074510 0.094118 0.000000
0.094118 0.094118 0.000000
0.113725 0.094118 0.000000
0.137255 0.094118 0.000000
0.160784 0.098039 0.000000
0.192157 0.094118 0.000000
0.219608 0.094118 0.000000
0.247059 0.094118 0.000000
0.274510 0.094118 0.000000
0.301961 0.098039 0.000000
0.325490 0.105882 0.000000
0.349020 0.117647 0.000000
0.372549 0.129412 0.000000
0.396078 0.149020 0.007843
0.423529 0.168627 0.027451
0.450980 0.188235 0.047059
0.478431 0.203922 0.062745
0.509804 0.227451 0.078431
0.537255 0.247059 0.098039
0.568627 0.266667 0.113725
0.600000 0.290196 0.129412
0.631373 0.309804 0.149020
0.662745 0.333333 0.164706
0.074510 0.117647 0.050980
0.082353 0.117647 0.047059
0.090196 0.117647 0.043137
0.105882 0.117647 0.031373
0.121569 0.121569 0.023529
0.145098 0.121569 0.011765
0.168627 0.121569 0.000000
0.196078 0.121569 0.000000
0.223529 0.121569 0.000000
0.250980 0.121569 0.000000
0.282353 0.121569 0.000000
0.309804 0.121569 0.000000
0.333333 0.129412 0.000000
0.360784 0.137255 0.000000
0.388235 0.152941 0.000000
0.411765 0.168627 0.019608
0.439216 0.184314 0.035294
0.466667 0.203922 0.054902
0.494118 0.223529 0.070588
0.521569 0.243137 0.086275
0.549020 0.262745 0.101961
0.580392 0.282353 0.121569
0.611765 0.301961 0.137255
0.639216 0.321569 0.156863
0.670588 0.345098 0.172549
0.086275 0.137255 0.086275
0.094118 0.137255 0.082353
0.101961 0.137255 0.078431
0.113725 0.141176 0.070588
0.129412 0.141176 0.062745
0.145098 0.141176 0.050980
0.168627 0.145098 0.035294
0.192157 0.145098 0.015686
0.219608 0.145098 0.000000
0.247059 0.145098 0.000000
0.278431 0.145098 0.000000
0.305882 0.145098 0.000000
0.337255 0.149020 0.000000
0.364706 0.156863 0.000000
0.396078 0.168627 0.003922
0.419608 0.184314 0.023529
0.447059 0.200000 0.039216
0.474510 0.215686 0.054902
0.501961 0.235294 0.074510
0.529412 0.254902 0.090196
0.556863 0.274510 0.105882
0.588235 0.294118 0.125490
0.615686 0.313725 0.141176
0.647059 0.333333 0.160784
0.678431 0.356863 0.180392
0.109804 0.164706 0.117647
0.113725 0.164706 0.117647
0.121569 0.168627 0.113725
0.129412 0.168627 0.109804
0.145098 0.168627 0.101961
0.160784 0.172549 0.094118
0.180392 0.176471 0.082353
0.203922 0.176471 0.066667
0.227451 0.180392 0.054902
0.258824 0.180392 0.039216
0.290196 0.184314 0.023529
0.321569 0.184314 0.015686
0.356863 0.192157 0.015686
0.388235 0.196078 0.019608
0.415686 0.207843 0.027451
0.443137 0.215686 0.039216
0.470588 0.231373 0.054902
0.498039 0.247059 0.070588
0.525490 0.262745 0.086275
0.549020 0.278431 0.105882
0.576471 0.298039 0.121569
0.607843 0.317647 0.137255
0.635294 0.337255 0.156863
0.662745 0.356863 0.172549
0.694118 0.376471 0.192157
0.129412 0.196078 0.149020
0.133333 0.196078 0.149020
0.141176 0.196078 0.149020
0.149020 0.196078 0.145098
0.160784 0.200000 0.141176
0.176471 0.203922 0.133333
0.196078 0.203922 0.121569
0.215686 0.207843 0.109804
0.239216 0.211765 0.098039
0.266667 0.215686 0.082353
0.298039 0.219608 0.070588
0.333333 0.223529 0.058824
0.364706 0.227451 0.050980
0.400000 0.235294 0.047059
0.431373 0.239216 0.047059
0.458824 0.247059 0.058824
0.490196 0.258824 0.070588
0.517647 0.274510 0.082353
0.541176 0.290196 0.098039
0.568627 0.305882 0.117647
0.596078 0.321569 0.133333
0.623529 0.341176 0.149020
0.650980 0.356863 0.168627
0.682353 0.376471 0.184314
0.713725 0.400000 0.203922
0.145098 0.219608 0.172549
0.149020 0.219608 0.172549
0.156863 0.219608 0.172549
0.164706 0.223529 0.172549
0.176471 0.223529 0.172549
0.188235 0.227451 0.168627
0.207843 0.231373 0.160784
0.227451 0.235294 0.149020
0.250980 0.243137 0.137255
0.274510 0.247059 0.121569
0.305882 0.250980 0.109804
0.333333 0.254902 0.094118
0.368627 0.258824 0.082353
0.400000 0.262745 0.074510
0.435294 0.270588 0.070588
0.466667 0.278431 0.074510
0.498039 0.286275 0.082353
0.525490 0.298039 0.094118
0.552941 0.313725 0.109804
0.580392 0.329412 0.125490
0.607843 0.345098 0.141176
0.639216 0.360784 0.160784
0.666667 0.380392 0.176471
0.698039 0.400000 0.196078
0.725490 0.419608 0.215686
0.184314 0.262745 0.211765
0.188235 0.262745 0.215686
0.192157 0.266667 0.215686
0.200000 0.266667 0.215686
0.207843 0.270588 0.215686
0.219608 0.270588 0.215686
0.235294 0.274510 0.211765
0.254902 0.278431 0.203922
0.274510 0.282353 0.192157
0.298039 0.290196 0.176471
0.325490 0.294118 0.160784
0.352941 0.298039 0.149020
0.384314 0.301961 0.133333
0.419608 0.309804 0.121569
0.450980 0.313725 0.113725
0.486275 0.321569 0.109804
0.517647 0.329412 0.113725
0.545098 0.337255 0.121569
0.576471 0.349020 0.133333
0.603922 0.360784 0.145098
0.631373 0.376471 0.160784
0.658824 0.392157 0.176471
0.686275 0.407843 0.196078
0.717647 0.427451 0.211765
0.745098 0.447059 0.231373
0.215686 0.301961 0.247059
0.219608 0.301961 0.247059
0.223529 0.305882 0.247059
0.231373 0.305882 0.250980
0.239216 0.305882 0.250980
0.250980 0.309804 0.250980
0.262745 0.313725 0.250980
0.278431 0.317647 0.247059
0.298039 0.321569 0.239216
0.317647 0.329412 0.227451
0.345098 0.333333 0.215686
0.372549 0.337255 0.200000
0.400000 0.345098 0.184314
0.431373 0.349020 0.168627
0.462745 0.352941 0.156863
0.498039 0.360784 0.152941
0.529412 0.368627 0.149020
0.560784 0.376471 0.152941
0.592157 0.384314 0.156863
0.623529 0.396078 0.168627
0.650980 0.411765 0.180392
0.682353 0.423529 0.196078
0.709804 0.439216 0.215686
0.737255 0.458824 0.231373
0.768627 0.478431 0.250980
0.243137 0.337255 0.270588
0.247059 0.337255 0.270588
0.250980 0.337255 0.274510
0.258824 0.341176 0.274510
0.266667 0.341176 0.278431
0.274510 0.345098 0.282353
0.286275 0.349020 0.282353
0.301961 0.352941 0.282353
0.317647 0.356863 0.278431
0.337255 0.360784 0.270588
0.360784 0.364706 0.258824
0.384314 0.372549 0.247059
0.411765 0.376471 0.231373
0.443137 0.384314 0.215686
0.474510 0.392157 0.203922
0.505882 0.396078 0.192157
0.541176 0.403922 0.184314
0.572549 0.411765 0.184314
0.603922 0.419608 0.188235
0.639216 0.431373 0.196078
0.670588 0.443137 0.203922
0.698039 0.458824 0.219608
0.729412 0.474510 0.235294
0.760784 0.494118 0.254902
0.792157 0.509804 0.270588
0.282353 0.384314 0.301961
0.286275 0.384314 0.305882
0.290196 0.384314 0.305882
0.294118 0.384314 0.309804
0.301961 0.388235 0.313725
0.309804 0.388235 0.317647
0.321569 0.392157 0.317647
0.333333 0.396078 0.321569
0.349020 0.400000 0.321569
0.364706 0.403922 0.317647
0.388235 0.411765 0.309804
0.407843 0.415686 0.298039
0.435294 0.419608 0.286275
0.462745 0.427451 0.270588
0.490196 0.435294 0.254902
0.521569 0.439216 0.243137
0.556863 0.447059 0.235294
0.588235 0.454902 0.227451
0.623529 0.462745 0.227451
0.654902 0.470588 0.227451
0.686275 0.482353 0.235294
0.717647 0.494118 0.247059
0.749020 0.509804 0.258824
0.780392 0.525490 0.274510
0.807843 0.537255 0.286275
0.321569 0.427451 0.333333
0.321569 0.427451 0.337255
0.325490 0.427451 0.337255
0.329412 0.427451 0.341176
0.337255 0.431373 0.345098
0.345098 0.431373 0.349020
0.356863 0.435294 0.349020
0.368627 0.439216 0.352941
0.380392 0.443137 0.356863
0.396078 0.447059 0.356863
0.415686 0.450980 0.352941
0.435294 0.458824 0.345098
0.458824 0.462745 0.333333
0.486275 0.470588 0.321569
0.513725 0.478431 0.309804
0.541176 0.482353 0.298039
0.572549 0.490196 0.286275
0.607843 0.498039 0.278431
0.639216 0.505882 0.270588
0.674510 0.517647 0.270588
0.705882 0.525490 0.274510
0.741176 0.537255 0.282353
0.768627 0.549020 0.290196
0.800000 0.560784 0.298039
0.827451 0.576471 0.313725
0.356863 0.466667 0.360784
0.356863 0.466667 0.360784
0.360784 0.470588 0.364706
0.364706 0.470588 0.368627
0.372549 0.470588 0.368627
0.380392 0.474510 0.372549
0.388235 0.474510 0.380392
0.400000 0.478431 0.384314
0.411765 0.482353 0.388235
0.427451 0.486275 0.388235
0.443137 0.494118 0.388235
0.462745 0.498039 0.384314
0.486275 0.505882 0.380392
0.509804 0.513725 0.372549
0.537255 0.521569 0.360784
0.564706 0.529412 0.349020
0.596078 0.537255 0.337255
0.627451 0.545098 0.329412
0.662745 0.552941 0.321569
0.694118 0.564706 0.317647
0.729412 0.572549 0.317647
0.760784 0.584314 0.321569
0.792157 0.592157 0.325490
0.823529 0.603922 0.333333
0.854902 0.615686 0.345098
0.392157 0.513725 0.392157
0.396078 0.513725 0.392157
0.396078 0.513725 0.392157
0.403922 0.513725 0.396078
0.407843 0.517647 0.400000
0.415686 0.517647 0.403922
0.423529 0.521569 0.407843
0.435294 0.521569 0.411765
0.447059 0.525490 0.415686
0.458824 0.529412 0.419608
0.474510 0.537255 0.423529
0.494118 0.541176 0.423529
0.513725 0.549020 0.419608
0.537255 0.552941 0.415686
0.560784 0.560784 0.407843
0.588235 0.568627 0.400000
0.615686 0.576471 0.388235
0.647059 0.584314 0.376471
0.674510 0.592157 0.368627
0.705882 0.600000 0.360784
0.737255 0.607843 0.356863
0.768627 0.615686 0.352941
0.800000 0.623529 0.352941
0.831373 0.635294 0.356863
0.858824 0.643137 0.364706
0.435294 0.560784 0.423529
0.435294 0.560784 0.427451
0.439216 0.564706 0.427451
0.443137 0.564706 0.431373
0.450980 0.564706 0.431373
0.454902 0.568627 0.435294
0.462745 0.568627 0.443137
0.474510 0.572549 0.447059
0.486275 0.576471 0.450980
0.498039 0.580392 0.454902
0.513725 0.584314 0.458824
0.529412 0.588235 0.462745
0.549020 0.596078 0.462745
0.568627 0.600000 0.458824
0.592157 0.607843 0.454902
0.615686 0.615686 0.447059
0.639216 0.619608 0.439216
0.666667 0.627451 0.427451
0.698039 0.635294 0.415686
0.725490 0.643137 0.407843
0.756863 0.650980 0.400000
0.788235 0.658824 0.396078
0.815686 0.666667 0.392157
0.847059 0.674510 0.392157
0.874510 0.682353 0.396078
0.482353 0.615686 0.462745
0.482353 0.615686 0.462745
0.486275 0.615686 0.462745
0.490196 0.615686 0.466667
0.494118 0.615686 0.470588
0.501961 0.619608 0.474510
0.509804 0.623529 0.478431
0.517647 0.623529 0.482353
0.529412 0.627451 0.486275
0.541176 0.631373 0.490196
0.556863 0.635294 0.498039
0.568627 0.639216 0.498039
0.588235 0.643137 0.501961
0.603922 0.650980 0.501961
0.627451 0.654902 0.498039
0.647059 0.662745 0.494118
0.670588 0.670588 0.486275
0.698039 0.678431 0.478431
0.725490 0.682353 0.470588
0.752941 0.690196 0.462745
0.780392 0.698039 0.454902
0.811765 0.705882 0.447059
0.839216 0.713725 0.443137
0.870588 0.717647 0.439216
0.898039 0.725490 0.439216
0.513725 0.654902 0.486275
0.513725 0.654902 0.486275
0.517647 0.654902 0.490196
0.521569 0.654902 0.490196
0.525490 0.658824 0.494118
0.533333 0.658824 0.498039
0.537255 0.658824 0.498039
0.549020 0.662745 0.505882
0.556863 0.666667 0.509804
0.568627 0.666667 0.513725
0.580392 0.670588 0.517647
0.596078 0.674510 0.521569
0.611765 0.678431 0.525490
0.627451 0.682353 0.525490
0.647059 0.690196 0.525490
0.666667 0.694118 0.521569
0.686275 0.701961 0.517647
0.709804 0.705882 0.509804
0.733333 0.713725 0.501961
0.760784 0.717647 0.494118
0.788235 0.725490 0.486275
0.815686 0.729412 0.478431
0.843137 0.737255 0.470588
0.870588 0.741176 0.466667
0.898039 0.749020 0.462745
0.552941 0.701961 0.517647
0.552941 0.701961 0.517647
0.556863 0.701961 0.521569
0.560784 0.701961 0.521569
0.564706 0.701961 0.521569
0.568627 0.705882 0.525490
0.576471 0.705882 0.529412
0.584314 0.705882 0.533333
0.592157 0.709804 0.537255
0.603922 0.713725 0.541176
0.615686 0.713725 0.545098
0.631373 0.717647 0.549020
0.643137 0.721569 0.552941
0.658824 0.725490 0.556863
0.674510 0.729412 0.556863
0.694118 0.737255 0.556863
0.713725 0.741176 0.552941
0.733333 0.745098 0.549020
0.756863 0.752941 0.541176
0.780392 0.756863 0.533333
0.807843 0.764706 0.525490
0.831373 0.768627 0.521569
0.862745 0.776471 0.513725
0.890196 0.784314 0.509804
0.917647 0.792157 0.505882
0.592157 0.749020 0.552941
0.596078 0.749020 0.552941
0.596078 0.749020 0.552941
0.600000 0.752941 0.552941
0.603922 0.752941 0.556863
0.611765 0.752941 0.560784
0.615686 0.752941 0.560784
0.623529 0.756863 0.564706
0.635294 0.760784 0.568627
0.643137 0.760784 0.576471
0.654902 0.764706 0.580392
0.666667 0.768627 0.584314
0.682353 0.772549 0.588235
0.698039 0.776471 0.592157
0.713725 0.780392 0.592157
0.729412 0.784314 0.592157
0.749020 0.788235 0.592157
0.768627 0.796078 0.592157
0.792157 0.800000 0.588235
0.815686 0.807843 0.584314
0.839216 0.815686 0.580392
0.866667 0.823529 0.572549
0.894118 0.831373 0.568627
0.925490 0.839216 0.564706
0.956863 0.850980 0.564706
0.619608 0.784314 0.568627
0.623529 0.784314 0.572549
0.623529 0.784314 0.572549
0.627451 0.784314 0.572549
0.631373 0.784314 0.572549
0.635294 0.784314 0.576471
0.639216 0.784314 0.580392
0.647059 0.788235 0.580392
0.654902 0.788235 0.584314
0.666667 0.792157 0.588235
0.674510 0.792157 0.592157
0.686275 0.796078 0.596078
0.701961 0.800000 0.600000
0.713725 0.803922 0.603922
0.729412 0.807843 0.607843
0.745098 0.811765 0.611765
0.764706 0.815686 0.611765
0.784314 0.823529 0.611765
0.803922 0.827451 0.607843
0.827451 0.835294 0.607843
0.850980 0.839216 0.603922
0.874510 0.847059 0.600000
0.901961 0.854902 0.596078
0.933333 0.866667 0.596078
0.964706 0.878431 0.592157
0.654902 0.823529 0.596078
0.654902 0.823529 0.596078
0.658824 0.823529 0.600000
0.658824 0.827451 0.600000
0.662745 0.827451 0.600000
0.670588 0.827451 0.603922
0.674510 0.827451 0.607843
0.682353 0.831373 0.607843
0.690196 0.831373 0.611765
0.698039 0.835294 0.615686
0.709804 0.835294 0.619608
0.721569 0.839216 0.623529
0.733333 0.843137 0.627451
0.749020 0.847059 0.635294
0.764706 0.850980 0.639216
0.780392 0.854902 0.639216
0.796078 0.858824 0.643137
0.815686 0.866667 0.647059
0.835294 0.874510 0.647059
0.858824 0.882353 0.647059
0.886275 0.890196 0.647059
0.909804 0.898039 0.647059
0.937255 0.909804 0.647059
0.960784 0.913725 0.639216
0.984314 0.917647 0.631373
0.698039 0.874510 0.631373
0.698039 0.874510 0.635294
0.701961 0.878431 0.635294
0.705882 0.878431 0.635294
0.709804 0.878431 0.639216
0.713725 0.878431 0.639216
0.721569 0.882353 0.643137
0.725490 0.882353 0.647059
0.737255 0.886275 0.650980
0.745098 0.890196 0.654902
0.756863 0.894118 0.658824
0.768627 0.898039 0.666667
0.784314 0.901961 0.670588
0.796078 0.905882 0.678431
0.815686 0.913725 0.682353
0.835294 0.921569 0.690196
0.854902 0.929412 0.698039
0.878431 0.941176 0.705882
0.898039 0.945098 0.709804
0.917647 0.952941 0.709804
0.937255 0.956863 0.705882
0.956863 0.960784 0.701961
0.976471 0.960784 0.694118
0.996078 0.964706 0.690196
1.000000 0.968627 0.682353
0.000000 0.007843 0.000000
0.003922 0.003922 0.000000
0.027451 0.000000 0.000000
0.062745 0.000000 0.000000
0.094118 0.000000 0.000000
0.121569 0.000000 0.000000
0.145098 0.015686 0.000000
0.164706 0.031373 0.000000
0.188235 0.043137 0.000000
0.215686 0.047059 0.000000
0.243137 0.050980 0.000000
0.266667 0.054902 0.000000
0.290196 0.066667 0.000000
0.313725 0.078431 0.000000
0.337255 0.094118 0.000000
0.364706 0.109804 0.007843
0.392157 0.129412 0.023529
0.423529 0.152941 0.043137
0.454902 0.172549 0.058824
0.482353 0.196078 0.074510
0.513725 0.215686 0.090196
0.545098 0.239216 0.109804
0.576471 0.262745 0.125490
0.611765 0.282353 0.141176
0.643137 0.305882 0.160784
0.000000 0.011765 0.000000
0.000000 0.007843 0.000000
0.015686 0.000000 0.000000
0.050980 0.000000 0.000000
0.090196 0.000000 0.000000
0.121569 0.011765 0.000000
0.145098 0.027451 0.000000
0.168627 0.043137 0.000000
0.192157 0.047059 0.000000
0.223529 0.054902 0.000000
0.250980 0.058824 0.000000
0.274510 0.066667 0.000000
0.301961 0.078431 0.000000
0.325490 0.090196 0.000000
0.349020 0.105882 0.007843
0.376471 0.121569 0.019608
0.403922 0.141176 0.039216
0.435294 0.164706 0.054902
0.462745 0.184314 0.066667
0.494118 0.203922 0.082353
0.525490 0.227451 0.098039
0.556863 0.247059 0.113725
0.584314 0.270588 0.129412
0.615686 0.290196 0.149020
0.650980 0.313725 0.164706
0.000000 0.019608 0.000000
0.000000 0.019608 0.000000
0.015686 0.023529 0.000000
0.062745 0.027451 0.000000
0.098039 0.035294 0.000000
0.125490 0.043137 0.000000
0.149020 0.054902 0.000000
0.176471 0.058824 0.000000
0.203922 0.062745 0.000000
0.231373 0.066667 0.000000
0.258824 0.070588 0.000000
0.282353 0.078431 0.000000
0.309804 0.086275 0.000000
0.333333 0.098039 0.000000
0.356863 0.113725 0.007843
0.384314 0.129412 0.023529
0.411765 0.149020 0.043137
0.439216 0.168627 0.058824
0.470588 0.192157 0.070588
0.498039 0.211765 0.086275
0.529412 0.231373 0.101961
0.560784 0.254902 0.117647
0.592157 0.274510 0.133333
0.623529 0.298039 0.149020
0.654902 0.317647 0.168627
0.007843 0.066667 0.000000
0.027451 0.070588 0.000000
0.050980 0.070588 0.000000
0.078431 0.070588 0.000000
0.105882 0.074510 0.000000
0.129412 0.074510 0.000000
0.152941 0.074510 0.000000
0.180392 0.078431 0.000000
0.207843 0.078431 0.000000
0.235294 0.074510 0.000000
0.258824 0.078431 0.000000
0.286275 0.082353 0.000000
0.309804 0.090196 0.000000
0.333333 0.101961 0.000000
0.356863 0.113725 0.003922
0.380392 0.133333 0.019608
0.411765 0.152941 0.039216
0.439216 0.172549 0.054902
0.466667 0.192157 0.066667
0.498039 0.211765 0.082353
0.529412 0.235294 0.101961
0.560784 0.254902 0.117647
0.588235 0.278431 0.133333
0.623529 0.298039 0.149020
0.654902 0.321569 0.168627
0.039216 0.090196 0.000000
0.054902 0.090196 0.000000
0.070588 0.094118 0.000000
0.090196 0.094118 0.000000
0.109804 0.094118 0.000000
0.133333 0.098039 0.000000
0.156863 0.098039 0.000000
0.184314 0.101961 0.000000
0.215686 0.101961 0.000000
0.247059 0.101961 0.000000
0.274510 0.101961 0.000000
0.301961 0.105882 0.000000
0.325490 0.113725 0.000000
0.352941 0.125490 0.007843
0.376471 0.137255 0.019608
0.403922 0.152941 0.035294
0.431373 0.172549 0.050980
0.458824 0.192157 0.066667
0.486275 0.211765 0.078431
0.513725 0.231373 0.094118
0.545098 0.250980 0.109804
0.572549 0.270588 0.125490
0.603922 0.290196 0.141176
0.635294 0.313725 0.160784
0.662745 0.333333 0.176471
0.074510 0.117647 0.047059
0.082353 0.117647 0.043137
0.090196 0.117647 0.043137
0.105882 0.121569 0.035294
0.121569 0.121569 0.031373
0.141176 0.125490 0.023529
0.164706 0.125490 0.015686
0.192157 0.129412 0.007843
0.223529 0.129412 0.003922
0.250980 0.129412 0.000000
0.282353 0.129412 0.000000
0.313725 0.129412 0.000000
0.341176 0.137255 0.003922
0.364706 0.145098 0.015686
0.392157 0.156863 0.027451
0.419608 0.172549 0.043137
0.447059 0.192157 0.058824
0.470588 0.207843 0.070588
0.498039 0.227451 0.086275
0.529412 0.247059 0.101961
0.556863 0.266667 0.117647
0.584314 0.286275 0.133333
0.615686 0.305882 0.149020
0.643137 0.325490 0.164706
0.674510 0.349020 0.184314
0.090196 0.141176 0.082353
0.094118 0.141176 0.078431
0.101961 0.141176 0.078431
0.113725 0.141176 0.070588
0.129412 0.145098 0.066667
0.145098 0.145098 0.058824
0.168627 0.145098 0.047059
0.192157 0.149020 0.035294
0.219608 0.149020 0.023529
0.247059 0.149020 0.011765
0.278431 0.149020 0.007843
0.309804 0.149020 0.003922
0.341176 0.152941 0.007843
0.368627 0.160784 0.015686
0.400000 0.172549 0.027451
0.427451 0.188235 0.043137
0.450980 0.203922 0.054902
0.478431 0.219608 0.070588
0.505882 0.239216 0.086275
0.533333 0.258824 0.101961
0.560784 0.274510 0.117647
0.592157 0.294118 0.137255
0.619608 0.317647 0.152941
0.650980 0.337255 0.168627
0.682353 0.356863 0.188235
0.109804 0.168627 0.117647
0.117647 0.168627 0.117647
0.125490 0.172549 0.113725
0.133333 0.172549 0.109804
0.149020 0.176471 0.105882
0.164706 0.176471 0.098039
0.184314 0.180392 0.090196
0.207843 0.184314 0.078431
0.231373 0.184314 0.070588
0.262745 0.188235 0.058824
0.294118 0.188235 0.047059
0.325490 0.192157 0.043137
0.360784 0.196078 0.039216
0.392157 0.203922 0.043137
0.423529 0.211765 0.047059
0.450980 0.219608 0.058824
0.478431 0.235294 0.070588
0.505882 0.250980 0.086275
0.529412 0.266667 0.101961
0.556863 0.282353 0.117647
0.584314 0.301961 0.133333
0.611765 0.317647 0.149020
0.639216 0.337255 0.164706
0.666667 0.356863 0.180392
0.698039 0.376471 0.200000
0.133333 0.200000 0.152941
0.141176 0.200000 0.152941
0.145098 0.200000 0.152941
0.152941 0.203922 0.149020
0.168627 0.203922 0.145098
0.180392 0.207843 0.137255
0.200000 0.211765 0.129412
0.219608 0.215686 0.117647
0.247059 0.219608 0.105882
0.274510 0.223529 0.098039
0.305882 0.227451 0.086275
0.337255 0.231373 0.074510
0.372549 0.235294 0.066667
0.403922 0.239216 0.066667
0.439216 0.243137 0.066667
0.466667 0.250980 0.074510
0.494118 0.262745 0.086275
0.521569 0.278431 0.098039
0.549020 0.290196 0.113725
0.576471 0.305882 0.129412
0.600000 0.325490 0.145098
0.627451 0.341176 0.160784
0.654902 0.360784 0.176471
0.686275 0.380392 0.196078
0.713725 0.400000 0.211765
0.149020 0.223529 0.176471
0.152941 0.223529 0.176471
0.160784 0.223529 0.176471
0.168627 0.227451 0.176471
0.180392 0.227451 0.176471
0.192157 0.231373 0.172549
0.211765 0.235294 0.164706
0.231373 0.239216 0.156863
0.250980 0.247059 0.145098
0.278431 0.250980 0.133333
0.305882 0.254902 0.117647
0.337255 0.258824 0.105882
0.372549 0.262745 0.094118
0.403922 0.266667 0.086275
0.439216 0.274510 0.086275
0.470588 0.282353 0.086275
0.501961 0.290196 0.094118
0.533333 0.301961 0.105882
0.560784 0.313725 0.117647
0.588235 0.329412 0.133333
0.611765 0.345098 0.149020
0.639216 0.360784 0.168627
0.670588 0.380392 0.184314
0.698039 0.400000 0.203922
0.729412 0.419608 0.219608
0.188235 0.270588 0.219608
0.192157 0.270588 0.219608
0.196078 0.270588 0.223529
0.203922 0.270588 0.223529
0.215686 0.274510 0.223529
0.227451 0.278431 0.223529
0.243137 0.282353 0.219608
0.258824 0.286275 0.211765
