skills/skills-3/darktable-colorist/assets/luts/CineStill-800-T-V2.0-N125.cube
#Generated with IWLTBAP LUT Generator
#Website: http://luts.iwltbap.com
TITLE "CineStill-800-T-V2.0-N125"
#LUT size
LUT_3D_SIZE 5
#LUT data points
0.000000 0.007843 0.000000
0.149020 0.015686 0.000000
0.290196 0.058824 0.000000
0.447059 0.168627 0.043137
0.639216 0.305882 0.149020
0.086275 0.137255 0.086275
0.168627 0.145098 0.035294
0.337255 0.149020 0.000000
0.501961 0.235294 0.074510
0.678431 0.356863 0.180392
0.243137 0.337255 0.270588
0.286275 0.349020 0.282353
0.411765 0.376471 0.231373
0.603922 0.419608 0.188235
0.792157 0.509804 0.270588
0.482353 0.615686 0.462745
0.509804 0.623529 0.478431
0.588235 0.643137 0.501961
0.725490 0.682353 0.470588
0.898039 0.725490 0.439216
0.698039 0.874510 0.631373
0.721569 0.882353 0.643137
0.784314 0.901961 0.670588
0.898039 0.945098 0.709804
1.000000 0.968627 0.682353
0.019608 0.000000 0.000000
0.125490 0.039216 0.007843
0.254902 0.117647 0.078431
0.443137 0.207843 0.156863
0.643137 0.321569 0.239216
0.078431 0.152941 0.086275
0.152941 0.164706 0.101961
0.309804 0.196078 0.129412
0.501961 0.262745 0.188235
0.682353 0.364706 0.258824
0.254902 0.352941 0.294118
0.298039 0.364706 0.301961
0.419608 0.392157 0.278431
0.623529 0.419608 0.250980
0.800000 0.498039 0.317647
0.470588 0.607843 0.501961
0.498039 0.615686 0.521569
0.572549 0.639216 0.552941
0.709804 0.674510 0.505882
0.898039 0.709804 0.450980
0.674510 0.854902 0.650980
0.698039 0.862745 0.662745
0.760784 0.882353 0.698039
0.870588 0.925490 0.733333
0.996078 0.952941 0.701961
0.078431 0.050980 0.066667
0.121569 0.090196 0.090196
0.254902 0.145098 0.156863
0.427451 0.239216 0.239216
0.615686 0.349020 0.333333
0.133333 0.160784 0.156863
0.184314 0.172549 0.168627
0.305882 0.219608 0.203922
0.466667 0.298039 0.266667
0.647059 0.396078 0.360784
0.258824 0.368627 0.298039
0.290196 0.380392 0.305882
0.396078 0.411765 0.337255
0.572549 0.450980 0.380392
0.764706 0.521569 0.443137
0.474510 0.615686 0.541176
0.501961 0.623529 0.552941
0.576471 0.647059 0.572549
0.709804 0.678431 0.560784
0.917647 0.705882 0.533333
0.670588 0.858824 0.725490
0.694118 0.866667 0.741176
0.752941 0.886275 0.784314
0.854902 0.925490 0.839216
0.988235 0.952941 0.780392
0.137255 0.101961 0.168627
0.168627 0.125490 0.180392
0.258824 0.188235 0.223529
0.419608 0.278431 0.317647
0.607843 0.380392 0.419608
0.184314 0.184314 0.211765
0.215686 0.203922 0.219608
0.301961 0.262745 0.262745
0.458824 0.333333 0.352941
0.643137 0.427451 0.447059
0.305882 0.384314 0.376471
0.337255 0.396078 0.388235
0.427451 0.427451 0.411765
0.572549 0.478431 0.454902
0.741176 0.556863 0.521569
0.486275 0.635294 0.564706
0.505882 0.643137 0.568627
0.568627 0.666667 0.584314
0.690196 0.701961 0.623529
0.862745 0.741176 0.662745
0.682353 0.870588 0.776471
0.701961 0.878431 0.788235
0.764706 0.901961 0.823529
0.862745 0.937255 0.854902
0.988235 0.960784 0.835294
0.196078 0.137255 0.274510
0.219608 0.152941 0.286275
0.305882 0.215686 0.329412
0.435294 0.309804 0.403922
0.611765 0.419608 0.509804
0.235294 0.215686 0.305882
0.262745 0.235294 0.321569
0.337255 0.286275 0.356863
0.462745 0.368627 0.427451
0.639216 0.470588 0.537255
0.364706 0.400000 0.447059
0.388235 0.411765 0.450980
0.458824 0.450980 0.470588
0.564706 0.521569 0.517647
0.737255 0.603922 0.623529
0.537255 0.662745 0.654902
0.556863 0.670588 0.658824
0.619608 0.694118 0.682353
0.729412 0.729412 0.713725
0.878431 0.776471 0.752941
0.725490 0.913725 0.847059
0.745098 0.925490 0.850980
0.803922 0.952941 0.874510
0.874510 0.976471 0.886275
0.980392 0.996078 0.909804
