skills/skills-2/darktable-colorist/assets/luts/nc.cube
#title:FLog2C_to_CLASSIC-Neg.
#model:GFX ETERNA 55
#FUJIFILM Corporation
#Gamma:F-Log2C to CLASSIC Neg.
#Gamut:F-GamutC to ITU-R BT.709
#Version:1.00
LUT_3D_SIZE 65
0.000000 0.000000 0.000000
0.000000 0.000000 0.000000
0.000000 0.000000 0.000000
0.000000 0.000000 0.000000
0.008406 0.000813 0.000000
0.020528 0.001206 0.000000
0.042030 0.003389 0.000803
0.062558 0.004595 0.000718
0.081717 0.006499 0.000633
0.103222 0.009018 0.000000
0.131177 0.009724 0.000000
0.166172 0.011940 0.000000
0.211918 0.015247 0.000000
0.270370 0.021933 0.000305
0.339965 0.028038 0.000493
0.438495 0.036162 0.000062
0.554813 0.046885 0.000000
0.662333 0.058472 0.000540
0.753039 0.069106 0.000000
0.816372 0.081685 0.000000
0.864456 0.094921 0.010867
0.899239 0.109762 0.040250
0.929521 0.127360 0.075800
0.941231 0.144360 0.120313
0.944140 0.162558 0.164602
0.945089 0.192824 0.194738
0.947988 0.225377 0.225098
0.949711 0.262617 0.260116
0.951060 0.281893 0.277250
0.951060 0.281893 0.277250
0.951060 0.281893 0.277250
0.951060 0.281893 0.277250
0.951060 0.281893 0.277250
0.951060 0.281893 0.277250
0.951060 0.281893 0.277250
0.951060 0.281893 0.277250
0.951060 0.281893 0.277250
0.951060 0.281893 0.277250
0.951060 0.281893 0.277250
0.951060 0.281893 0.277250
0.951060 0.281893 0.277250
0.951060 0.281893 0.277250
0.951060 0.281893 0.277250
0.951060 0.281893 0.277250
0.951060 0.281893 0.277250
0.951060 0.281893 0.277250
0.951060 0.281893 0.277250
0.951060 0.281893 0.277250
0.951060 0.281893 0.277250
0.951060 0.281893 0.277250
0.951060 0.281893 0.277250
0.951060 0.281893 0.277250
0.951060 0.281893 0.277250
0.951060 0.281893 0.277250
0.951060 0.281893 0.277250
0.951060 0.281893 0.277250
0.951060 0.281893 0.277250
0.951060 0.281893 0.277250
0.951060 0.281893 0.277250
0.951060 0.281893 0.277250
0.951060 0.281893 0.277250
0.951060 0.281893 0.277250
0.951060 0.281893 0.277250
0.951060 0.281893 0.277250
0.951060 0.281893 0.277250
0.000000 0.000000 0.000000
0.000000 0.000000 0.000000
0.000000 0.000000 0.000000
0.000000 0.000000 0.000000
0.002347 0.000616 0.000000
0.014467 0.001009 0.000000
0.032648 0.001600 0.000360
0.051806 0.003504 0.000273
0.073311 0.006023 0.000000
0.095208 0.006532 0.000000
0.120033 0.010306 0.000460
0.151705 0.010930 0.000000
0.192367 0.015352 0.000000
0.242804 0.019217 0.000922
0.309078 0.024067 0.000000
0.397832 0.031739 0.000989
0.504375 0.042684 0.000000
0.618347 0.052794 0.000000
0.716485 0.062928 0.000000
0.793308 0.075203 0.000000
0.846474 0.088668 0.004562
0.885365 0.102760 0.027023
0.917411 0.118659 0.058137
0.942216 0.137702 0.100609
0.942781 0.153605 0.154303
0.945884 0.179825 0.182488
0.946439 0.211764 0.213602
0.949922 0.246968 0.245913
0.951060 0.281893 0.277250
0.951060 0.281893 0.277250
0.951060 0.281893 0.277250
0.951060 0.281893 0.277250
0.951060 0.281893 0.277250
0.951060 0.281893 0.277250
0.951060 0.281893 0.277250
0.951060 0.281893 0.277250
0.951060 0.281893 0.277250
0.951060 0.281893 0.277250
0.951060 0.281893 0.277250
0.951060 0.281893 0.277250
0.951060 0.281893 0.277250
0.951060 0.281893 0.277250
0.951060 0.281893 0.277250
0.951060 0.281893 0.277250
0.951060 0.281893 0.277250
0.951060 0.281893 0.277250
0.951060 0.281893 0.277250
0.951060 0.281893 0.277250
0.951060 0.281893 0.277250
0.951060 0.281893 0.277250
0.951060 0.281893 0.277250
0.951060 0.281893 0.277250
0.951060 0.281893 0.277250
0.951060 0.281893 0.277250
0.951060 0.281893 0.277250
0.951060 0.281893 0.277250
0.951060 0.281893 0.277250
0.951060 0.281893 0.277250
0.951060 0.281893 0.277250
0.951060 0.281893 0.277250
0.951060 0.281893 0.277250
0.951060 0.281893 0.277250
0.951060 0.281893 0.277250
0.951060 0.281893 0.277250
0.951060 0.281893 0.277250
0.000000 0.000000 0.000000
0.000000 0.000000 0.000000
0.000000 0.000000 0.000000
0.000000 0.000000 0.000000
0.000000 0.000000 0.000000
0.008406 0.000813 0.000000
0.022873 0.001822 0.000000
0.042030 0.003389 0.000803
0.062558 0.004595 0.000718
0.085432 0.006417 0.000000
0.109281 0.009215 0.000016
0.137238 0.009921 0.000153
0.174186 0.014425 0.000000
0.217586 0.017452 0.000000
0.280144 0.022049 0.000000
0.358146 0.028965 0.000000
0.459022 0.037368 0.000000
0.573386 0.045803 0.000000
0.678168 0.058784 0.000231
0.766138 0.070477 0.000554
0.826733 0.084786 0.000000
0.871100 0.097433 0.014773
0.904514 0.112634 0.045887
0.933427 0.130594 0.083167
0.941423 0.147340 0.130165
0.943940 0.167885 0.171970
0.944887 0.198822 0.198644
0.947787 0.231041 0.230734
0.950486 0.269257 0.266730
0.951060 0.281893 0.277250
0.951060 0.281893 0.277250
0.951060 0.281893 0.277250
0.951060 0.281893 0.277250
0.951060 0.281893 0.277250
0.951060 0.281893 0.277250
0.951060 0.281893 0.277250
0.951060 0.281893 0.277250
0.951060 0.281893 0.277250
0.951060 0.281893 0.277250
0.951060 0.281893 0.277250
0.951060 0.281893 0.277250
0.951060 0.281893 0.277250
0.951060 0.281893 0.277250
0.951060 0.281893 0.277250
0.951060 0.281893 0.277250
0.951060 0.281893 0.277250
0.951060 0.281893 0.277250
0.951060 0.281893 0.277250
0.951060 0.281893 0.277250
0.951060 0.281893 0.277250
0.951060 0.281893 0.277250
0.951060 0.281893 0.277250
0.951060 0.281893 0.277250
0.951060 0.281893 0.277250
0.951060 0.281893 0.277250
0.951060 0.281893 0.277250
0.951060 0.281893 0.277250
0.951060 0.281893 0.277250
0.951060 0.281893 0.277250
0.951060 0.281893 0.277250
0.951060 0.281893 0.277250
0.951060 0.281893 0.277250
0.951060 0.281893 0.277250
0.951060 0.281893 0.277250
0.951060 0.281893 0.277250
0.000000 0.000000 0.000000
0.000000 0.000000 0.000000
0.000000 0.000000 0.000000
0.000000 0.000000 0.000000
0.000000 0.000000 0.000000
0.004691 0.000895 0.000222
0.016813 0.001624 0.000000
0.035971 0.003191 0.000582
0.052783 0.004817 0.000000
0.075656 0.006302 0.000411
0.101269 0.006728 0.000000
0.123748 0.010224 0.000000
0.156396 0.011824 0.000067
0.198427 0.015549 0.000000
0.252580 0.019669 0.000000
0.322176 0.025437 0.000578
0.414644 0.033364 0.000000
0.520212 0.042660 0.000694
0.636137 0.055395 0.000000
0.729190 0.066308 0.000000
0.802692 0.076991 0.000000
0.853512 0.090178 0.004031
0.890641 0.105968 0.030929
0.921317 0.121557 0.067235
0.940455 0.138730 0.108507
0.943366 0.155920 0.157989
0.944705 0.184510 0.187148
0.946628 0.216424 0.214801
0.948352 0.253665 0.249820
0.951060 0.281893 0.277250
0.951060 0.281893 0.277250
0.951060 0.281893 0.277250
0.951060 0.281893 0.277250
0.951060 0.281893 0.277250
0.951060 0.281893 0.277250
0.951060 0.281893 0.277250
0.951060 0.281893 0.277250
0.951060 0.281893 0.277250
0.951060 0.281893 0.277250
0.951060 0.281893 0.277250
0.951060 0.281893 0.277250
0.951060 0.281893 0.277250
0.951060 0.281893 0.277250
0.951060 0.281893 0.277250
0.951060 0.281893 0.277250
0.951060 0.281893 0.277250
0.951060 0.281893 0.277250
0.951060 0.281893 0.277250
0.951060 0.281893 0.277250
0.951060 0.281893 0.277250
0.951060 0.281893 0.277250
0.951060 0.281893 0.277250
0.951060 0.281893 0.277250
0.951060 0.281893 0.277250
0.951060 0.281893 0.277250
0.951060 0.281893 0.277250
0.951060 0.281893 0.277250
0.951060 0.281893 0.277250
0.951060 0.281893 0.277250
0.951060 0.281893 0.277250
0.951060 0.281893 0.277250
0.951060 0.281893 0.277250
0.951060 0.281893 0.277250
0.951060 0.281893 0.277250
0.951060 0.281893 0.277250
0.000000 0.000000 0.000000
0.000000 0.000000 0.000000
0.000000 0.000000 0.000000
0.000000 0.000000 0.000000
0.000000 0.000000 0.000000
0.000000 0.000000 0.000000
0.010752 0.001091 0.000445
0.027564 0.002380 0.001113
0.048092 0.003586 0.001028
0.067251 0.005490 0.000942
0.091493 0.006614 0.000102
0.115342 0.009412 0.000238
0.141538 0.012825 0.000000
0.180246 0.014622 0.000204
0.228338 0.018545 0.000000
0.292266 0.022442 0.000218
0.371637 0.028662 0.000000
0.475834 0.038656 0.000645
0.586092 0.049184 0.000000
0.693611 0.061106 0.000000
0.776497 0.073578 0.000247
0.833186 0.083309 0.000000
0.876768 0.098632 0.019435
0.909789 0.115843 0.049793
0.935381 0.131875 0.088582
0.942982 0.149623 0.140015
0.944130 0.172545 0.173167
0.947423 0.203089 0.204281
0.947587 0.236702 0.236372
0.950678 0.273581 0.269660
0.951060 0.281893 0.277250
0.951060 0.281893 0.277250
0.951060 0.281893 0.277250
0.951060 0.281893 0.277250
0.951060 0.281893 0.277250
0.951060 0.281893 0.277250
0.951060 0.281893 0.277250
0.951060 0.281893 0.277250
0.951060 0.281893 0.277250
0.951060 0.281893 0.277250
0.951060 0.281893 0.277250
0.951060 0.281893 0.277250
0.951060 0.281893 0.277250
0.951060 0.281893 0.277250
0.951060 0.281893 0.277250
0.951060 0.281893 0.277250
0.951060 0.281893 0.277250
0.951060 0.281893 0.277250
0.951060 0.281893 0.277250
0.951060 0.281893 0.277250
0.951060 0.281893 0.277250
0.951060 0.281893 0.277250
0.951060 0.281893 0.277250
0.951060 0.281893 0.277250
0.951060 0.281893 0.277250
0.951060 0.281893 0.277250
0.951060 0.281893 0.277250
0.951060 0.281893 0.277250
0.951060 0.281893 0.277250
0.951060 0.281893 0.277250
0.951060 0.281893 0.277250
0.951060 0.281893 0.277250
0.951060 0.281893 0.277250
0.951060 0.281893 0.277250
0.951060 0.281893 0.277250
0.000977 0.000977 0.000977
0.000977 0.000977 0.000977
0.000000 0.000000 0.000000
0.000000 0.000000 0.000000
0.000000 0.000000 0.000000
0.000000 0.000000 0.000000
0.004691 0.000895 0.000222
0.020528 0.001206 0.000000
0.036948 0.004505 0.000000
0.057475 0.005711 0.000000
0.080347 0.007196 0.000633
0.103613 0.007007 0.000547
0.131177 0.009724 0.000000
0.162457 0.012021 0.000289
0.209180 0.016641 0.000000
0.264309 0.021736 0.000082
0.335274 0.027144 0.000269
0.426373 0.035768 0.000000
0.540347 0.045877 0.000000
0.653342 0.055009 0.000000
0.741895 0.069688 0.000000
0.810705 0.079478 0.000075
0.859764 0.094027 0.010646
0.897286 0.108144 0.036567
0.926591 0.124430 0.072870
0.940647 0.142382 0.114898
0.944925 0.159210 0.162649
0.944504 0.190509 0.191055
0.948773 0.222030 0.223145
0.949520 0.258630 0.255457
0.951060 0.281893 0.277250
0.951060 0.281893 0.277250
0.951060 0.281893 0.277250
0.951060 0.281893 0.277250
0.951060 0.281893 0.277250
0.951060 0.281893 0.277250
0.951060 0.281893 0.277250
0.951060 0.281893 0.277250
0.951060 0.281893 0.277250
0.951060 0.281893 0.277250
0.951060 0.281893 0.277250
0.951060 0.281893 0.277250
0.951060 0.281893 0.277250
0.951060 0.281893 0.277250
0.951060 0.281893 0.277250
0.951060 0.281893 0.277250
0.951060 0.281893 0.277250
0.951060 0.281893 0.277250
0.951060 0.281893 0.277250
0.951060 0.281893 0.277250
0.951060 0.281893 0.277250
0.951060 0.281893 0.277250
0.951060 0.281893 0.277250
0.951060 0.281893 0.277250
0.951060 0.281893 0.277250
0.951060 0.281893 0.277250
0.951060 0.281893 0.277250
0.951060 0.281893 0.277250
0.951060 0.281893 0.277250
0.951060 0.281893 0.277250
0.951060 0.281893 0.277250
0.951060 0.281893 0.277250
0.951060 0.281893 0.277250
0.951060 0.281893 0.277250
0.951060 0.281893 0.277250
0.000000 0.008681 0.000000
0.000000 0.006671 0.000445
0.000192 0.004997 0.000000
0.000000 0.003684 0.000222
0.000977 0.000977 0.000977
0.000000 0.000000 0.000000
0.002347 0.000616 0.000000
0.014467 0.001009 0.000000
0.032648 0.001600 0.000360
0.050438 0.004201 0.000273
0.069596 0.006105 0.000187
0.092861 0.005917 0.000102
0.116319 0.010725 0.000000
0.146620 0.011709 0.000598
0.188653 0.015434 0.000000
0.236745 0.019020 0.000700
0.301648 0.024231 0.000663
0.387080 0.030984 0.000000
0.491278 0.040978 0.000000
0.607012 0.048716 0.000000
0.705340 0.063510 0.000000
0.787249 0.075005 0.000000
0.839830 0.086157 0.000656
0.883019 0.102481 0.026046
0.913695 0.119413 0.055429
0.939287 0.135445 0.094219
0.943566 0.151601 0.145429
0.944322 0.176198 0.179558
0.947224 0.209088 0.208188
0.949732 0.242980 0.241255
0.950477 0.279243 0.275297
0.951060 0.281893 0.277250
0.951060 0.281893 0.277250
0.951060 0.281893 0.277250
0.951060 0.281893 0.277250
0.951060 0.281893 0.277250
0.951060 0.281893 0.277250
0.951060 0.281893 0.277250
0.951060 0.281893 0.277250
0.951060 0.281893 0.277250
0.951060 0.281893 0.277250
0.951060 0.281893 0.277250
0.951060 0.281893 0.277250
0.951060 0.281893 0.277250
0.951060 0.281893 0.277250
0.951060 0.281893 0.277250
0.951060 0.281893 0.277250
0.951060 0.281893 0.277250
0.951060 0.281893 0.277250
0.951060 0.281893 0.277250
0.951060 0.281893 0.277250
0.951060 0.281893 0.277250
0.951060 0.281893 0.277250
0.951060 0.281893 0.277250
0.951060 0.281893 0.277250
0.951060 0.281893 0.277250
0.951060 0.281893 0.277250
0.951060 0.281893 0.277250
0.951060 0.281893 0.277250
0.951060 0.281893 0.277250
0.951060 0.281893 0.277250
0.951060 0.281893 0.277250
0.951060 0.281893 0.277250
0.951060 0.281893 0.277250
0.951060 0.281893 0.277250
0.000000 0.018002 0.002089
0.000000 0.013341 0.000892
0.000000 0.011331 0.001644
0.000000 0.008681 0.000000
0.000000 0.006671 0.000445
0.000192 0.004997 0.000000
0.000000 0.003684 0.000222
0.007038 0.001510 0.000000
0.020528 0.001206 0.000000
0.042030 0.003389 0.000803
0.062558 0.004595 0.000718
0.081717 0.006499 0.000633
0.106936 0.008599 0.000769
0.131177 0.009724 0.000000
0.169886 0.011857 0.000000
0.212503 0.018233 0.000000
0.272715 0.022549 0.000000
0.349741 0.028153 0.000000
0.448269 0.036276 0.000000
0.554813 0.046885 0.000000
0.667415 0.057692 0.000000
0.755777 0.067712 0.000000
0.820089 0.081266 0.000520
0.866801 0.094864 0.013575
0.902561 0.111018 0.042203
0.929130 0.128697 0.078509
0.940838 0.145361 0.124750
0.943748 0.163897 0.167308
0.944695 0.194497 0.195714
0.948180 0.229702 0.228028
0.950295 0.265269 0.262070
0.951060 0.281893 0.277250
0.951060 0.281893 0.277250
0.951060 0.281893 0.277250
0.951060 0.281893 0.277250
0.951060 0.281893 0.277250
0.951060 0.281893 0.277250
0.951060 0.281893 0.277250
0.951060 0.281893 0.277250
0.951060 0.281893 0.277250
0.951060 0.281893 0.277250
0.951060 0.281893 0.277250
0.951060 0.281893 0.277250
0.951060 0.281893 0.277250
0.951060 0.281893 0.277250
0.951060 0.281893 0.277250
0.951060 0.281893 0.277250
0.951060 0.281893 0.277250
0.951060 0.281893 0.277250
0.951060 0.281893 0.277250
0.951060 0.281893 0.277250
0.951060 0.281893 0.277250
0.951060 0.281893 0.277250
0.951060 0.281893 0.277250
0.951060 0.281893 0.277250
0.951060 0.281893 0.277250
0.951060 0.281893 0.277250
0.951060 0.281893 0.277250
0.951060 0.281893 0.277250
0.951060 0.281893 0.277250
0.951060 0.281893 0.277250
0.951060 0.281893 0.277250
0.951060 0.281893 0.277250
0.951060 0.281893 0.277250
0.951060 0.281893 0.277250
0.000000 0.033993 0.004934
0.000565 0.025649 0.003512
0.000000 0.021686 0.002313
0.000000 0.020012 0.001337
0.000000 0.013341 0.000892
0.000000 0.011331 0.001644
0.000000 0.008681 0.000000
0.000000 0.006671 0.000445
0.011335 0.004414 0.000000
0.032840 0.006597 0.000000
0.052783 0.004817 0.000000
0.075656 0.006302 0.000411
0.095208 0.006532 0.000000
0.120033 0.010306 0.000460
0.151705 0.010930 0.000000
0.196082 0.014934 0.000000
0.245151 0.019833 0.000167
0.311031 0.026355 0.000000
0.400177 0.032355 0.000234
0.511804 0.042184 0.000000
0.623039 0.053688 0.000000
0.723521 0.064101 0.000000
0.796238 0.078805 0.000000
0.848821 0.088947 0.005539
0.886342 0.103401 0.029731
0.917994 0.120974 0.061819
0.941240 0.136054 0.103093
0.942389 0.154943 0.157012
0.946467 0.182475 0.184441
0.947415 0.213076 0.212848
0.949530 0.248643 0.246890
0.951060 0.281893 0.277250
0.951060 0.281893 0.277250
0.951060 0.281893 0.277250
0.951060 0.281893 0.277250
0.951060 0.281893 0.277250
0.951060 0.281893 0.277250
0.951060 0.281893 0.277250
0.951060 0.281893 0.277250
0.951060 0.281893 0.277250
0.951060 0.281893 0.277250
0.951060 0.281893 0.277250
0.951060 0.281893 0.277250
0.951060 0.281893 0.277250
0.951060 0.281893 0.277250
0.951060 0.281893 0.277250
0.951060 0.281893 0.277250
0.951060 0.281893 0.277250
0.951060 0.281893 0.277250
0.951060 0.281893 0.277250
0.951060 0.281893 0.277250
0.951060 0.281893 0.277250
0.951060 0.281893 0.277250
0.951060 0.281893 0.277250
0.951060 0.281893 0.277250
0.951060 0.281893 0.277250
0.951060 0.281893 0.277250
0.951060 0.281893 0.277250
0.951060 0.281893 0.277250
0.951060 0.281893 0.277250
0.951060 0.281893 0.277250
0.951060 0.281893 0.277250
0.951060 0.281893 0.277250
0.951060 0.281893 0.277250
0.951060 0.281893 0.277250
0.000938 0.046637 0.005824
0.000000 0.042339 0.006356
0.000000 0.036003 0.004179
0.000000 0.033993 0.004934
0.000000 0.029333 0.003733
0.000000 0.021686 0.002313
0.000000 0.020012 0.001337
0.000000 0.018002 0.002089
0.003313 0.013259 0.000136
0.018171 0.012258 0.000582
0.045545 0.009977 0.000496
0.062358 0.011602 0.000000
0.086016 0.009403 0.000102
0.111234 0.011504 0.000238
0.139191 0.012210 0.000374
0.175162 0.015401 0.000956
0.219932 0.017732 0.000031
0.283860 0.021630 0.000749
0.361861 0.028883 0.000000
0.460975 0.039657 0.000200
0.572601 0.049487 0.000000
0.680906 0.057390 0.000231
0.769852 0.070394 0.000000
0.828494 0.082078 0.000000
0.872469 0.096736 0.014773
0.906467 0.114924 0.046109
0.934404 0.131571 0.084144
0.942399 0.147980 0.132870
0.944916 0.168861 0.172946
0.946255 0.197789 0.200375
0.947395 0.232714 0.231710
0.950486 0.268920 0.268461
0.951060 0.281893 0.277250
0.951060 0.281893 0.277250
0.951060 0.281893 0.277250
0.951060 0.281893 0.277250
0.951060 0.281893 0.277250
0.951060 0.281893 0.277250
0.951060 0.281893 0.277250
0.951060 0.281893 0.277250
0.951060 0.281893 0.277250
0.951060 0.281893 0.277250
0.951060 0.281893 0.277250
0.951060 0.281893 0.277250
0.951060 0.281893 0.277250
0.951060 0.281893 0.277250
0.951060 0.281893 0.277250
0.951060 0.281893 0.277250
0.951060 0.281893 0.277250
0.951060 0.281893 0.277250
0.951060 0.281893 0.277250
0.951060 0.281893 0.277250
0.951060 0.281893 0.277250
0.951060 0.281893 0.277250
0.951060 0.281893 0.277250
0.951060 0.281893 0.277250
0.951060 0.281893 0.277250
0.951060 0.281893 0.277250
0.951060 0.281893 0.277250
0.951060 0.281893 0.277250
0.951060 0.281893 0.277250
0.951060 0.281893 0.277250
0.951060 0.281893 0.277250
0.951060 0.281893 0.277250
0.951060 0.281893 0.277250
0.001703 0.065280 0.010620
0.000928 0.057632 0.009200
0.000737 0.052972 0.008000
0.000938 0.046637 0.005824
0.000000 0.042339 0.006356
0.000162 0.038991 0.004403
0.000000 0.033993 0.004934
0.000000 0.029333 0.003733
0.000565 0.025649 0.003512
0.006434 0.021521 0.000803
0.030092 0.019659 0.000000
0.052381 0.018157 0.000411
0.074277 0.018666 0.000324
0.099306 0.016107 0.000000
0.123548 0.016894 0.000153
0.159911 0.018413 0.000000
0.199988 0.019512 0.000340
0.255903 0.020924 0.000613
0.328236 0.025970 0.000000
0.417384 0.031969 0.000000
0.529986 0.042776 0.000164
0.639852 0.054977 0.000402
0.732905 0.065890 0.000000
0.804645 0.079280 0.000000
0.855072 0.093804 0.006960
0.892987 0.106248 0.031906
0.923270 0.123846 0.067457
0.941432 0.139707 0.109484
0.944342 0.156559 0.160696
0.945682 0.185823 0.186394
0.947213 0.218738 0.218484
0.950305 0.255618 0.251773
0.951060 0.281893 0.277250
0.951060 0.281893 0.277250
0.951060 0.281893 0.277250
0.951060 0.281893 0.277250
0.951060 0.281893 0.277250
0.951060 0.281893 0.277250
0.951060 0.281893 0.277250
0.951060 0.281893 0.277250
0.951060 0.281893 0.277250
0.951060 0.281893 0.277250
0.951060 0.281893 0.277250
0.951060 0.281893 0.277250
0.951060 0.281893 0.277250
0.951060 0.281893 0.277250
0.951060 0.281893 0.277250
0.951060 0.281893 0.277250
0.951060 0.281893 0.277250
0.951060 0.281893 0.277250
0.951060 0.281893 0.277250
0.951060 0.281893 0.277250
0.951060 0.281893 0.277250
0.951060 0.281893 0.277250
0.951060 0.281893 0.277250
0.951060 0.281893 0.277250
0.951060 0.281893 0.277250
0.951060 0.281893 0.277250
0.951060 0.281893 0.277250
0.951060 0.281893 0.277250
0.951060 0.281893 0.277250
0.951060 0.281893 0.277250
0.951060 0.281893 0.277250
0.951060 0.281893 0.277250
0.951060 0.281893 0.277250
0.000908 0.080295 0.012488
0.001693 0.076611 0.012266
0.001502 0.071949 0.011066
0.001703 0.065280 0.010620
0.001905 0.058945 0.008445
0.000737 0.052972 0.008000
0.000938 0.046637 0.005824
0.000000 0.045325 0.006578
0.000000 0.037678 0.005156
0.000948 0.035305 0.004179
0.016200 0.032967 0.001918
0.040251 0.029431 0.000000
0.064491 0.030219 0.000769
0.089520 0.027659 0.000000
0.112786 0.027471 0.000000
0.142111 0.027479 0.000000
0.180820 0.029612 0.000000
0.231651 0.031804 0.000000
0.295387 0.031040 0.000000
0.374758 0.037260 0.000000
0.479156 0.040584 0.000000
0.594498 0.049996 0.000000
0.699672 0.061303 0.000000
0.780211 0.073496 0.000000
0.835532 0.083588 0.000000
0.878721 0.100585 0.021388
0.909789 0.115507 0.051523
0.937334 0.133492 0.092266
0.941613 0.149984 0.141746
0.943739 0.173883 0.175876
0.947032 0.204763 0.205258
0.948563 0.237678 0.237348
0.949893 0.276929 0.271613
0.951060 0.281893 0.277250
0.951060 0.281893 0.277250
0.951060 0.281893 0.277250
0.951060 0.281893 0.277250
0.951060 0.281893 0.277250
0.951060 0.281893 0.277250
0.951060 0.281893 0.277250
0.951060 0.281893 0.277250
0.951060 0.281893 0.277250
0.951060 0.281893 0.277250
0.951060 0.281893 0.277250
0.951060 0.281893 0.277250
0.951060 0.281893 0.277250
0.951060 0.281893 0.277250
0.951060 0.281893 0.277250
0.951060 0.281893 0.277250
0.951060 0.281893 0.277250
0.951060 0.281893 0.277250
0.951060 0.281893 0.277250
0.951060 0.281893 0.277250
0.951060 0.281893 0.277250
0.951060 0.281893 0.277250
0.951060 0.281893 0.277250
0.951060 0.281893 0.277250
0.951060 0.281893 0.277250
0.951060 0.281893 0.277250
0.951060 0.281893 0.277250
0.951060 0.281893 0.277250
0.951060 0.281893 0.277250
0.951060 0.281893 0.277250
0.951060 0.281893 0.277250
0.951060 0.281893 0.277250
0.002650 0.100249 0.016530
0.002459 0.095589 0.015332
0.002267 0.090928 0.014132
0.001492 0.083281 0.012711
0.001301 0.078621 0.011512
0.001110 0.073624 0.012043
0.001703 0.065280 0.010620
0.001905 0.058945 0.008445
0.000737 0.052972 0.008000
0.001521 0.049624 0.006046
0.003283 0.046917 0.006801
0.026942 0.045389 0.004008
0.053338 0.042805 0.000000
0.076996 0.040606 0.000153
0.101631 0.039720 0.000067
0.129589 0.040426 0.000204
0.163999 0.039655 0.000000
0.208767 0.041649 0.000391
0.268397 0.042979 0.000000
0.339362 0.048386 0.000098
0.438676 0.052825 0.000000
0.547766 0.057044 0.000000
0.658808 0.063887 0.000000
0.748932 0.071198 0.000000
0.812658 0.081767 0.000296
0.862109 0.094306 0.011622
0.896893 0.109818 0.037543
0.926200 0.126104 0.073847
0.940254 0.143383 0.119336
0.944534 0.160884 0.163626
0.945874 0.189812 0.191055
0.948382 0.224040 0.222391
0.950104 0.260944 0.259140
0.951060 0.281893 0.277250
0.951060 0.281893 0.277250
0.951060 0.281893 0.277250
0.951060 0.281893 0.277250
0.951060 0.281893 0.277250
0.951060 0.281893 0.277250
0.951060 0.281893 0.277250
0.951060 0.281893 0.277250
0.951060 0.281893 0.277250
0.951060 0.281893 0.277250
0.951060 0.281893 0.277250
0.951060 0.281893 0.277250
0.951060 0.281893 0.277250
0.951060 0.281893 0.277250
0.951060 0.281893 0.277250
0.951060 0.281893 0.277250
0.951060 0.281893 0.277250
0.951060 0.281893 0.277250
0.951060 0.281893 0.277250
0.951060 0.281893 0.277250
0.951060 0.281893 0.277250
0.951060 0.281893 0.277250
0.951060 0.281893 0.277250
0.951060 0.281893 0.277250
0.951060 0.281893 0.277250
0.951060 0.281893 0.277250
0.951060 0.281893 0.277250
0.951060 0.281893 0.277250
0.951060 0.281893 0.277250
0.951060 0.281893 0.277250
0.951060 0.281893 0.277250
0.951060 0.281893 0.277250
0.002439 0.118252 0.018622
0.002248 0.113591 0.017422
0.002449 0.106920 0.016976
0.002257 0.102260 0.015778
0.002459 0.095589 0.015332
0.002267 0.090928 0.014132
0.001492 0.083281 0.012711
0.001301 0.078621 0.011512
0.001110 0.073624 0.012043
0.001311 0.067290 0.009868
0.000727 0.064304 0.009644
0.011681 0.059396 0.006184
0.040422 0.056753 0.004366
0.062712 0.056261 0.000000
0.088715 0.054678 0.000000
0.116089 0.052397 0.000000
0.146784 0.051708 0.000000
0.191161 0.055712 0.000000
0.241406 0.054917 0.000663
0.306703 0.058454 0.000000
0.397612 0.062080 0.000000
0.505917 0.069982 0.000302
0.621650 0.077720 0.000000
0.716465 0.085925 0.000000
0.792122 0.092564 0.000000
0.846464 0.100672 0.002746
0.885164 0.109431 0.027469
0.915064 0.118380 0.057160
0.939872 0.137759 0.097903
0.941805 0.152965 0.151598
0.944907 0.179184 0.179782
0.947224 0.209088 0.208188
0.949338 0.244318 0.243960
0.951060 0.281893 0.277250
0.951060 0.281893 0.277250
0.951060 0.281893 0.277250
0.951060 0.281893 0.277250
